!!!COM: Beethoven
!!!OTL: Zehn Variationen uber "la stessa, la stessissima" aus "Falstaff" von A. Salieri
!!!Variation: Theme a
**function	**harm	**kern	**kern
*	*	*clefF4	*clefG2
*	*	*k[b-e-]	*k[b-e-]
*M4/4	*M4/4	*M4/4	*M4/4
*B-:	*B-:	*B-:	*B-:
=1	=1	=1	=1
1T	1I	4BBB-' 4BB-'	4d' 4b-'
.	.	.	q8cc
.	.	4r	(16b-LL
.	.	.	16a
.	.	.	16b-
.	.	.	16ccJJ)
.	.	4r	4b-'
.	.	4BB-' 4B-'	4b-' 4dd'
=2	=2	=2	=2
1T	1V	4FF' 4F'	4a' 4cc'
.	.	.	q8gg
.	.	4r	(16ffLL
.	.	.	16ee
.	.	.	16ff
.	.	.	16ggJJ)
.	.	2r	4ff'
.	.	.	4r
=3	=3	=3	=3
1T	1V	4FF' 4F'	4a' 4cc'
.	.	4r	(16ccLL
.	.	.	16dd
.	.	.	16cc
.	.	.	16b-JJ)
.	.	4r	4a'
.	.	4F' 4c'	4a' 4ff'
=4	=4	=4	=4
1T	1I	4BB-' 4B-'	4b-' 4dd'
.	.	.	q8ccc
.	.	4r	(16bb-LL
.	.	.	16aa
.	.	.	16bb-
.	.	.	16cccJJ)
.	.	2r	4bb-'
.	.	.	4r
=5	=5	=5	=5
1T	1IV	4E-' 4e-'	4b-' 4gg'
.	.	.	q8cc
.	.	4r	(16b-LL
.	.	.	16a
.	.	.	16b-
.	.	.	16ccJJ)
.	.	4r	4b-'
.	.	4E-' 4e-'	4b-' 4gg'
=6	=6	=6	=6
2.T	2.Ib	4D' 4d'	4b-' 4ff'
.	.	.	q8cc
.	.	4r	(16b-LL
.	.	.	16a
.	.	.	16b-
.	.	.	16ccJJ)
.	.	4r	4b-'
4T	4I	4BB-' 4B-'	4f' 4b-' 4dd'
=7	=7	=7	=7
4T	4V	4F'	4f' 4a' 4cc'
4T	4I	4BB-'	4f' 4b-' 4dd'
4T	4V	4F'	4f' 4a' 4cc'
4T	4I	4BB-'	4f' 4b-' 4dd'
=8	=8	=8	=8
1D	1V	4F	8aL 8cc
.	.	.	q8gg
.	.	.	16ffL
.	.	.	16eeJJ
.	.	4F 4f	8ff'L
.	.	.	8aa'J
.	.	4C 4c	8ccL
.	.	.	q8b-
.	.	.	16aL
.	.	.	16gJJ
.	.	4AA 4A	8a'L
.	.	.	8cc'J
*-	*-	*-	*-
!!!COM: Beethoven
!!!OTL: Zehn Variationen uber "la stessa, la stessissima" aus "Falstaff" von A. Salieri
!!!Variation: Theme b
**function	**harm	**kern	**kern
*	*	*clefF4	*clefG2
*	*	*k[b-e-]	*k[b-e-]
*M4/4	*M4/4	*M4/4	*M4/4
*B-:	*B-:	*B-:	*B-:
=9	=9	=9	=9
1D	1V	4FF 4F	4f
.	.	4r	8r
.	.	.	8f
.	.	4.r	8fL
.	.	.	8f
.	.	.	8f
.	.	8f	8fJ
=10	=10	=10	=10
4D	4V/V	8eL	8gL
.	.	8c	8g
4D	4V7	8f	8a
.	.	8e-J	8aJ
4D	4Ib	8dL	8b-L
.	.	8f	8b-
4D	4Vb	8A	8cc
.	.	8fJ	8ccJ
=11	=11	=11	=11
1D	1I	16B-LL	16ddLL
.	.	16A	16ee-
.	.	16B-	16dd
.	.	16cJJ	16ccJJ
.	.	4d	4b-
.	.	2r	4r
.	.	.	4dd 4ff
=12	=12	=12	=12
2D	2I	4BB- 4B-	4b- 4dd
.	.	4r	4b- 4dd
2D	2V	4FF 4F	4a 4cc
.	.	4r	4a 4cc
=13	=13	=13	=13
1T	1I	4BB- 4B-	(16ddLL
.	.	.	16ff
.	.	.	16ee
.	.	.	16ffJJ
.	.	4r	16ggLL
.	.	.	16ff
.	.	.	16ee
.	.	.	16ffJJ
.	.	4r	16ggLL
.	.	.	16ff
.	.	.	16ee
.	.	.	16ffJJ
.	.	4d 4f	16ggLL
.	.	.	16ff
.	.	.	16ee
.	.	.	16ffJJ)
=14	=14	=14	=14
2T	2I	4B- 4d	16ggLL
.	.	.	16ff
.	.	.	16ee
.	.	.	16ffJJ
.	.	4B- 4d	16ggLL
.	.	.	16ff
.	.	.	16ee
.	.	.	16ffJJ
2T	2V	4F 4c	16ggLL
.	.	.	16ff
.	.	.	16ee
.	.	.	16ffJJ
.	.	4F 4c	16ggLL
.	.	.	16ff
.	.	.	16ee
.	.	.	16ffJJ
=15	=15	=15	=15
1T	1I	4BB- 4D 4F 4B-	4b-
.	.	.	q8ccc
.	.	4BB- 4D 4F 4B-	(16bb-LL
.	.	.	16aa
.	.	.	16bb-
.	.	.	16cccJJ)
.	.	4BB- 4D 4F 4B-	4bb-
.	.	4r	4r
*-	*-	*-	*-
!!!COM: Beethoven
!!!OTL: Zehn Variationen uber "la stessa, la stessissima" aus "Falstaff" von A. Salieri
!!!Variation: Variation 1 a
**function	**harm	**kern	**kern
*	*	*clefG2	*clefG2
*	*	*k[b-e-]	*k[b-e-]
*M4/4	*M4/4	*M4/4	*M4/4
*B-:	*B-:	*B-:	*B-:
=16	=16	=16	=16
1T	1I	4B- 4d 4f	8b-L
.	.	.	8b
.	.	4r	8cc
.	.	.	8cc#J
.	.	4r	8ddL
.	.	.	8ee-
.	.	(4B- 4d 4f	8ee
.	.	.	8ffJ
=17	=17	=17	=17
1T	1V7b	4A) 4e- 4f	8ff#L
.	.	.	8gg
.	.	4r	8aa-
.	.	.	8aaJ
.	.	4r	8bb-L
.	.	.	8bb
.	.	(4A 4e- 4f	8ccc
.	.	.	8ccc#J
=18	=18	=18	=18
1T	1V7c	4c) 4e- 4f 4a	8dddL
.	.	.	8eee-
.	.	4r	8eee
.	.	.	8fffJ
.	.	4r	8eeeL
.	.	.	8fff
.	.	(4c 4e- 4f 4a	8eee
.	.	.	8fffJ
=19	=19	=19	=19
1T	1I	4B-) 4d 4f 4b-	8eeeL
.	.	.	8fff
.	.	4r	8eee-
.	.	.	8dddJ
.	.	4r	8cccL
.	.	.	8bb-
.	.	(4B- 4d 4f	8ddd
.	.	.	8bb-J
=20	=20	=20	=20
1T	1IVc	4B-) 4e- 4g	8aaL
.	.	.	8gg
.	.	4r	8ff#
.	.	.	8ggJ
.	.	4r	8aaL
.	.	.	8gg
.	.	(4B- 4e- 4g	8bb-
.	.	.	8ggJ
=21	=21	=21	=21
1T	1I	4B-) 4d 4f	8eeL
.	.	.	8ff
.	.	4r	8gg
.	.	.	8ffJ
.	.	4r	8ee-L
.	.	.	8dd
*	*	*clefF4	*
.	.	4B-' 4d' 4f'	8cc
.	.	.	8b-J
=22	=22	=22	=22
4T	4V7b	4A' 4f'	8ee-L
.	.	.	8cc
4T	4I	4B-' 4f'	8dd
.	.	.	8b-J
4T	4V7b	4A' 4f'	8ee-L
.	.	.	8cc
4T	4I	4B-' 4f'	8dd
.	.	.	8b-J
=23	=23	=23	=23
1D	1V	4F 4f	8ccL
.	.	.	8b-
.	.	4r	8a
.	.	.	8gJ
.	.	2r	8fL
.	.	.	8e-
.	.	.	8d
.	.	.	8cJ
*-	*-	*-	*-
!!!COM: Beethoven
!!!OTL: Zehn Variationen uber "la stessa, la stessissima" aus "Falstaff" von A. Salieri
!!!Variation: Variation 1 a2
**function	**harm	**kern	**kern
*	*	*clefF4	*clefG2
*	*	*k[b-e-]	*k[b-e-]
*M4/4	*M4/4	*M4/4	*M4/4
*B-:	*B-:	*B-:	*B-:
=24	=24	=24	=24
1T	1I	8BB-L	4B-
.	.	8BB	.
.	.	8C	4r
.	.	8C#J	.
.	.	8DL	4r
.	.	8E-	.
.	.	8E	(4b- 4dd
.	.	8FJ	.
=25	=25	=25	=25
1T	1V	8F#L	4a') 4cc'
.	.	8G	.
.	.	8G#	4r
.	.	8AJ	.
.	.	8B-L	4r
.	.	8B	.
.	.	8c	([4a [4ff
.	.	8c#J	.
=26	=26	=26	=26
1T	1V7	8dL	4a] 4ff]
.	.	8e-	.
.	.	8e	4a) 4ee-
.	.	8fJ	.
.	.	8eL	(4a' 4ee-'
.	.	8f	.
.	.	8e	4a') 4ee-'
.	.	8fJ	.
=27	=27	=27	=27
1T	1I	8eL	4b- 4dd
.	.	8f	.
.	.	8g	4r
.	.	8fJ	.
.	.	8e-L	2r
.	.	8d	.
.	.	8c	.
.	.	8B-J	.
=28	=28	=28	=28
*	*	*^	*
1T	1IV	2E-	8AL	2r
.	.	.	8G	.
.	.	.	8F#	.
.	.	.	8GJ	.
*	*	*v	*v	*
.	.	2r	(8B-L
.	.	.	8e-
.	.	.	8f#
.	.	.	8gJ)
=29	=29	=29	=29
1T	1Ib	1D 1B-	(8fL
.	.	.	8g
.	.	.	8a
.	.	.	8b-J
.	.	.	8ccL
.	.	.	8dd
.	.	.	8ee-
.	.	.	8ffJ)
=30	=30	=30	=30
4T	4V7b	4A 4f	(8ee-L
.	.	.	8cc
4T	4I	4B- 4f	8dd
.	.	.	8b-J
4T	4V7b	4A 4f	8ee-L
.	.	.	8cc
4T	4I	4B- 4f	8dd
.	.	.	8b-J)
=31	=31	=31	=31
1D	1V	4F 4f	(8ccL
.	.	.	8a
.	.	4r	8f
.	.	.	8cJ
.	.	4r	8AL
.	.	.	8FJ)
.	.	(8CL	4r
.	.	8AAJ)	.
*-	*-	*-	*-
!!!COM: Beethoven
!!!OTL: Zehn Variationen uber "la stessa, la stessissima" aus "Falstaff" von A. Salieri
!!!Variation: Variation 1 b
**function	**harm	**kern	**kern
*	*	*clefF4	*clefG2
*	*	*k[b-e-]	*k[b-e-]
*M4/4	*M4/4	*M4/4	*M4/4
*B-:	*B-:	*B-:	*B-:
=32	=32	=32	=32
*	*	*^	*
1D	1V	[1FF	2r	(8FL
.	.	.	.	8G
.	.	.	.	8A
.	.	.	.	8B-J
.	.	.	4r	8cL
.	.	.	.	8d
.	.	.	4F	8e
.	.	.	.	8fJ
=33	=33	=33	=33	=33
1D	1V7	1FF]	4E	8f#L
.	.	.	.	8g
.	.	.	4E-	8a-
.	.	.	.	8aJ
.	.	.	4D	8b-L
.	.	.	.	8b
.	.	.	4C	8cc
.	.	.	.	8cc#J
*	*	*v	*v	*
=34	=34	=34	=34
1D	1I	4BB-	8ddL
.	.	.	8ee-
.	.	4r	8ee
.	.	.	8ffJ
.	.	2r	8ff#L
.	.	.	8gg
.	.	.	8aa-
.	.	.	8aaJ
=35	=35	=35	=35
*	*	*^	*
2D	2Ic	1F	(2d	8bb-L
.	.	.	.	8aa
.	.	.	.	8ccc
.	.	.	.	8bb-J
2D	2V7	.	2c) 2e-	8aaL
.	.	.	.	8gg
.	.	.	.	8ff
.	.	.	.	8ee-J
*	*	*v	*v	*
=36	=36	=36	=36
1T	1I	4B- 4d	8ddL
.	.	.	8ee-
.	.	4r	8ee
.	.	.	8ffJ
.	.	2r	8ggL
.	.	.	8ff
.	.	.	8ee-
.	.	.	8ddJ
=37	=37	=37	=37
*	*	*^	*
2T	2Ic	1FF	(2D	8ccL
.	.	.	.	8b-
.	.	.	.	8a
.	.	.	.	8gJ
2T	2V7	.	2E-)	8fL
.	.	.	.	8e-
.	.	.	.	8d
.	.	.	.	8cJ
*	*	*v	*v	*
=38	=38	=38	=38
1T	1I	4BB- 4D	8B-L
.	.	.	8FJ
.	.	8r	8D)
.	.	8BB-	8r
.	.	4BBB-	2r
.	.	4r	.
*-	*-	*-	*-
!!!COM: Beethoven
!!!OTL: Zehn Variationen uber "la stessa, la stessissima" aus "Falstaff" von A. Salieri
!!!Variation: Variation 2 a
**function	**harm	**kern	**kern
*	*	*clefF4	*clefG2
*	*	*k[b-e-]	*k[b-e-]
*M4/4	*M4/4	*M4/4	*M4/4
*B-:	*B-:	*B-:	*B-:
=39	=39	=39	=39
*	*	*	*^
1T	1I	1BB-	(4B-	16B-LL
.	.	.	.	16f
.	.	.	.	16b-
.	.	.	.	16fJJ
.	.	.	4c	16cLL
.	.	.	.	16f
.	.	.	.	16b-
.	.	.	.	16fJJ
.	.	.	4c#	16c#LL
.	.	.	.	16f
.	.	.	.	16b-
.	.	.	.	16fJJ
.	.	.	4d)	16dLL
.	.	.	.	16f
.	.	.	.	16b-
.	.	.	.	16fJJ
=40	=40	=40	=40	=40
*	*	*^	*	*
1T	1V7	1F	(4F	16aLL	(4a
.	.	.	.	16e-	.
.	.	.	.	16f	.
.	.	.	.	16e-JJ	.
.	.	.	4G	16b-LL	4b-
.	.	.	.	16e-	.
.	.	.	.	16f	.
.	.	.	.	16e-JJ	.
.	.	.	4G#	16bLL	4b
.	.	.	.	16e-	.
.	.	.	.	16f	.
.	.	.	.	16e-JJ	.
.	.	.	4A)	16ccLL	4cc)
.	.	.	.	16e-	.
.	.	.	.	16f	.
.	.	.	.	16e-JJ	.
*	*	*v	*v	*	*
=41	=41	=41	=41	=41
1T	1V7	1FF 1F	(4c	16cLL
.	.	.	.	16f
.	.	.	.	16a
.	.	.	.	16fJJ
.	.	.	4c#	16c#LL
.	.	.	.	16f
.	.	.	.	16a
.	.	.	.	16fJJ
.	.	.	4d	16dLL
.	.	.	.	16f
.	.	.	.	16a
.	.	.	.	16fJJ
.	.	.	4e-)	16e-LL
.	.	.	.	16f
.	.	.	.	16a
.	.	.	.	16fJJ
=42	=42	=42	=42	=42
*	*	*^	*	*
1T	1I	1BB-	4r	16b-LL	(4b-
.	.	.	.	16d	.
.	.	.	.	16f	.
.	.	.	.	16dJJ	.
.	.	.	2A	16ccLL	4cc
.	.	.	.	16e-	.
.	.	.	.	16f	.
.	.	.	.	16e-JJ	.
.	.	.	.	16cc#LL	4cc#
.	.	.	.	16e-	.
.	.	.	.	16f	.
.	.	.	.	16e-JJ	.
.	.	.	4B-	16ddLL	4dd)
.	.	.	.	16d	.
.	.	.	.	16f	.
.	.	.	.	16dJJ	.
*	*	*v	*v	*	*
=43	=43	=43	=43	=43
1T	1IV	1E- 1B-	(4g	16gLL
.	.	.	.	16ee-
.	.	.	.	16gg
.	.	.	.	16ee-JJ
.	.	.	4a-	16a-LL
.	.	.	.	16ee-
.	.	.	.	16gg
.	.	.	.	16ee-JJ
.	.	.	4a	16aLL
.	.	.	.	16ee-
.	.	.	.	16gg
.	.	.	.	16ee-JJ
.	.	.	4b-)	16b-LL
.	.	.	.	16ee-
.	.	.	.	16gg
.	.	.	.	16ee-JJ
=44	=44	=44	=44	=44
1T	1I	1BB- 1B-	16ffLL	(4ff
.	.	.	16b-	.
.	.	.	16dd	.
.	.	.	16b-JJ	.
.	.	.	16ggLL	4gg
.	.	.	16b-	.
.	.	.	16dd	.
.	.	.	16b-JJ	.
.	.	.	16aaLL	4aa
.	.	.	16b-	.
.	.	.	16dd	.
.	.	.	16b-JJ	.
.	.	.	16bb-LL	4bb-)
.	.	.	16b-	.
.	.	.	16dd	.
.	.	.	16b-JJ	.
*	*	*	*v	*v
=45	=45	=45	=45
4T	4V7b	4AA' 4F'	16ccc'LL
.	.	.	16ee-
.	.	.	16ff
.	.	.	16ee-JJ
4T	4I	4BB-' 4F'	16bb-'LL
.	.	.	16dd
.	.	.	16ff
.	.	.	16ddJJ
4T	4V7b	4AA' 4F'	16ccc'LL
.	.	.	16ee-
.	.	.	16ff
.	.	.	16ee-JJ
4T	4I	4BB-' 4F'	16bb-'LL
.	.	.	16dd
.	.	.	16ff
.	.	.	16dd-JJ
=46	=46	=46	=46
1D	1V	4FF 4F	16aaLL
.	.	.	16ff
.	.	.	16cc
.	.	.	16aJJ
.	.	4r	16fLL
.	.	.	16cc
.	.	.	16a
.	.	.	16fJJ
.	.	2r	16cLL
.	.	.	16a
.	.	.	16f
.	.	.	16cJJ
.	.	.	16ALL
.	.	.	16f
.	.	.	16c
.	.	.	16AJJ
*-	*-	*-	*-
!!!COM: Beethoven
!!!OTL: Zehn Variationen uber "la stessa, la stessissima" aus "Falstaff" von A. Salieri
!!!Variation: Variation 2 b
**function	**harm	**kern	**kern
*	*	*clefF4	*clefG2
*	*	*k[b-e-]	*k[b-e-]
*M4/4	*M4/4	*M4/4	*M4/4
*B-:	*B-:	*B-:	*B-:
=47	=47	=47	=47
*	*	*	*^
1D	1V	[1FF	(4F	16FLL
.	.	.	.	16c
.	.	.	.	16f
.	.	.	.	16cJJ
.	.	.	4G	16GLL
.	.	.	.	16c
.	.	.	.	16f
.	.	.	.	16cJJ
.	.	.	4G#	(16G#LL
.	.	.	.	16c)
.	.	.	.	16f
.	.	.	.	16cJJ
.	.	.	4A)	16ALL
.	.	.	.	16c
.	.	.	.	16f
.	.	.	.	16cJJ
=48	=48	=48	=48	=48
2D	2viio/V	1FF]	(4B-	16B-LL
.	.	.	.	16e
.	.	.	.	16f
.	.	.	.	16eJJ
.	.	.	4G	16GLL
.	.	.	.	16e
.	.	.	.	16f
.	.	.	.	16eJJ
2D	2V7	.	4c	16cLL
.	.	.	.	16e-
.	.	.	.	16f
.	.	.	.	16e-JJ
.	.	.	4A)	16ALL
.	.	.	.	16e-
.	.	.	.	16f
.	.	.	.	16e-JJ
=49	=49	=49	=49	=49
1D	1I	1BB-	16fLL	(4f
.	.	.	16B-	.
.	.	.	16d	.
.	.	.	16B-JJ	.
.	.	.	16gLL	4g
.	.	.	16B-	.
.	.	.	16d	.
.	.	.	16B-JJ	.
.	.	.	16aLL	4a
.	.	.	16B-	.
.	.	.	16d	.
.	.	.	16B-JJ	.
.	.	.	16b-LL	4b-)
.	.	.	16B-	.
.	.	.	16d	.
.	.	.	16B-JJ	.
=50	=50	=50	=50	=50
*	*	*^	*	*
1D	1V7	1F	(4F	16bLL	(4b
.	.	.	.	16e-	.
.	.	.	.	16f	.
.	.	.	.	16e-JJ	.
.	.	.	4G	16ccLL	2cc)
.	.	.	.	16e-	.
.	.	.	.	16f	.
.	.	.	.	16e-JJ	.
.	.	.	4G#	16r	.
.	.	.	.	16e-LL	.
.	.	.	.	16f	.
.	.	.	.	16e-JJ	.
.	.	.	4A)	16ccLL	4cc
.	.	.	.	16e-	.
.	.	.	.	16f	.
.	.	.	.	16e-JJ	.
*	*	*v	*v	*	*
=51	=51	=51	=51	=51
1T	1I	1BB- 1F 1B-	16b-LL	(4b-
.	.	.	16d	.
.	.	.	16f	.
.	.	.	16dJJ	.
.	.	.	16ccLL	4cc
.	.	.	16d	.
.	.	.	16f	.
.	.	.	16dJJ	.
.	.	.	16cc#LL	4cc#
.	.	.	16d	.
.	.	.	16f	.
.	.	.	16dJJ	.
.	.	.	16ddLL	4dd)
.	.	.	16d	.
.	.	.	16f	.
.	.	.	16dJJ	.
=52	=52	=52	=52	=52
*	*	*^	*	*
1T	1V7	1FF 1F	(4FF	16ee-LL	(2.ee-
.	.	.	.	16e-	.
.	.	.	.	16f	.
.	.	.	.	16e-JJ	.
.	.	.	4GG	16r	.
.	.	.	.	16e-LL	.
.	.	.	.	16f	.
.	.	.	.	16e-JJ	.
.	.	.	4GG#	16r	.
.	.	.	.	16e-LL	.
.	.	.	.	16f	.
.	.	.	.	16e-JJ	.
.	.	.	4AA)	16ccLL	4cc)
.	.	.	.	16e-	.
.	.	.	.	16f	.
.	.	.	.	16e-JJ	.
*	*	*v	*v	*	*
*	*	*	*v	*v
=53	=53	=53	=53
1T	1I	4BB-	16b-LL
.	.	.	16dd
.	.	.	16b-
.	.	.	16fJJ
.	.	4r	16dLL
.	.	.	16B-
.	.	.	16F
.	.	.	16DJJ
.	.	4BBB- 4BB-	2r
.	.	4r	.
*-	*-	*-	*-
!!!COM: Beethoven
!!!OTL: Zehn Variationen uber "la stessa, la stessissima" aus "Falstaff" von A. Salieri
!!!Variation: Variation 3 a
**function	**harm	**kern	**kern
*	*	*clefF4	*clefG2
*	*	*k[b-e-]	*k[b-e-]
*M4/4	*M4/4	*M4/4	*M4/4
*B-:	*B-:	*B-:	*B-:
=54	=54	=54	=54
1T	1I	(8BB-	4r
.	.	4B-	.
.	.	.	4d 4f 4b-
.	.	4F	.
.	.	.	4d 4f 4b-
.	.	4D	.
.	.	.	4d 4f 4b-
.	.	[8BB-)	.
=55	=55	=55	=55
1T	1V7	(8BB-]	4e- 4f 4b
.	.	4AA	.
.	.	.	4e- 4f 4cc
.	.	4GG	.
.	.	.	4e- 4f 4cc
.	.	4FF	.
.	.	.	4e- 4f 4cc
.	.	[8GG)	.
=56	=56	=56	=56
1T	1V7	(8GG]	4e- 4f 4cc
.	.	4AA	.
.	.	.	4e- 4f 4a 4cc
.	.	4FF	.
.	.	.	4e- 4f 4a 4cc
.	.	4F	.
.	.	.	4f 4a 4cc
.	.	[8E-)	.
=57	=57	=57	=57
1T	1I	8E-]	4f 4a 4cc#
.	.	4D	.
.	.	.	4f 4b- 4dd
.	.	4C	.
.	.	.	4f 4b- 4dd
.	.	4BB-	.
.	.	.	4f 4b- 4dd
.	.	[8AA-	.
=58	=58	=58	=58
1T	1IV	8AA-]	4g 4b- 4ee-
.	.	4GG	.
.	.	.	4ee- 4gg
.	.	4FF	.
.	.	.	4ee- 4gg
.	.	4EE-	.
.	.	.	4ee- 4gg
.	.	[8GG	.
=59	=59	=59	=59
1T	1I	8GG]	4ee- 4gg
.	.	4AA	.
.	.	.	4dd 4ff
.	.	4BB-	.
.	.	.	4cc 4ee-
.	.	4C	.
.	.	.	4b- 4dd
.	.	[8D	.
=60	=60	=60	=60
2P	2V7b/V	8D]	4b- 4cc
.	.	4E-	.
.	.	.	4b- 4cc
.	.	4E	.
4P	4V	.	4a 4cc
.	.	4F	.
4P	4Ic	.	4b- 4dd
.	.	[8E	.
=61	=61	=61	=61
1D	1V7	8E]	4a 4cc
.	.	4F	.
.	.	.	4f
.	.	4F	.
.	.	.	4a
.	.	4C	.
.	.	.	4cc
.	.	[8AA	.
*-	*-	*-	*-
!!!COM: Beethoven
!!!OTL: Zehn Variationen uber "la stessa, la stessissima" aus "Falstaff" von A. Salieri
!!!Variation: Variation 3 b
**function	**harm	**kern	**kern
*	*	*clefF4	*clefG2
*	*	*k[b-e-]	*k[b-e-]
*M4/4	*M4/4	*M4/4	*M4/4
*B-:	*B-:	*B-:	*B-:
=62	=62	=62	=62
1D	1V	8AA]	4f 4ff
.	.	4FF	.
.	.	.	4c 4cc
.	.	4F	.
.	.	.	4A 4a
.	.	4F	.
.	.	.	4f
.	.	[8F	.
=63	=63	=63	=63
1D	1V7	8F]	4G 4g
.	.	4E	.
.	.	.	4A 4a
.	.	4E-	.
.	.	.	4B- 4b-
.	.	4D	.
.	.	.	4c 4cc
.	.	[8C	.
=64	=64	=64	=64
1D	1I	8C]	4d 4dd
.	.	4BB-	.
.	.	.	4f 4ff
.	.	4D	.
.	.	.	4b- 4bb-
.	.	4F	.
.	.	.	4dd 4ddd
.	.	[8B-	.
=65	=65	=65	=65
2D	2Ic	8B-]	4ff 4fff
.	.	4F	.
.	.	.	4dd 4ddd
.	.	4B-	.
2D	2V7	.	4ee- 4eee-
.	.	4F	.
.	.	.	4cc 4ccc
.	.	[8A	.
=66	=66	=66	=66
1T	1I	8A]	4dd 4ddd
.	.	4B-	.
.	.	.	4b- 4bb-
.	.	4F	.
.	.	.	4f 4ff
.	.	4D	.
.	.	.	4d 4dd
.	.	[8BB-	.
=67	=67	=67	=67
2T	2Ic	8BB-]	4f 4ff
.	.	4FF	.
.	.	.	4d 4dd
.	.	4BB-	.
2T	2V7	.	4e- 4ee-
.	.	4FF	.
.	.	.	4c 4cc
.	.	[8AA	.
=68	=68	=68	=68
1T	1I	8AAL]	4B- 4b-
.	.	8BB-	.
.	.	8FF	4r
.	.	8DDJ	.
.	.	4BBB-	2r
.	.	4r	.
*-	*-	*-	*-
!!!COM: Beethoven
!!!OTL: Zehn Variationen uber "la stessa, la stessissima" aus "Falstaff" von A. Salieri
!!!Variation: Variation 4 a
**function	**harm	**kern	**kern
*	*	*clefF4	*clefG2
*	*	*k[b-e-]	*k[b-e-]
*M4/4	*M4/4	*M4/4	*M4/4
*B-:	*B-:	*B-:	*B-:
=69	=69	=69	=69
1T	1I	4BBB- 4BB-	12DL
.	.	.	12F
.	.	.	12B-J
.	.	4r	12dL
.	.	.	12f
.	.	.	12b-J
.	.	2r	(12ccL
.	.	.	12a
.	.	.	12b-J
.	.	.	12ccL
.	.	.	12a
.	.	.	12b-J)
=70	=70	=70	=70
1T	1V7	4F 4c 4e-	(12ddL
.	.	.	12b
.	.	.	12ccJ
.	.	4r	12ee-L
.	.	.	12b
.	.	.	12ccJ)
.	.	2r	(12ddL
.	.	.	12b
.	.	.	12ccJ
.	.	.	12ee-L
.	.	.	12b
.	.	.	12ccJ)
=71	=71	=71	=71
1T	1V7	12FFL	4r
.	.	12AA	.
.	.	12CJ	.
.	.	4F	12AL
.	.	.	12c
.	.	.	12e-J
.	.	2r	12fL
.	.	.	12a
.	.	.	12ccJ
.	.	.	12ee-L
.	.	.	12b
.	.	.	12ccJ
=72	=72	=72	=72
1T	1I	4B- 4d 4f	(12ee-L
.	.	.	12cc#
.	.	.	12ddJ
.	.	4r	12ffL
.	.	.	12cc#
.	.	.	12ddJ)
.	.	2r	(12ee-L
.	.	.	12cc#
.	.	.	12ddJ
.	.	.	12ffL
.	.	.	12cc#
.	.	.	12ddJ)
=73	=73	=73	=73
1T	1IVc	12BBB-'L	4r
.	.	12EE-'	.
.	.	12GG'J	.
.	.	12BB-'L	[2.ee- [2.gg
.	.	12E-'	.
.	.	12G'J	.
.	.	12B-'L	.
.	.	12e-'	.
.	.	12g'J	.
.	.	4b-	.
=74	=74	=74	=74
1T	1I	12BBB-'L	4ee-] 4gg]
.	.	12DD'	.
.	.	12FF'J	.
.	.	12BB-'L	2.dd 2.ff
.	.	12D'	.
.	.	12F'J	.
.	.	12B-'L	.
.	.	12d'	.
.	.	12f'J	.
.	.	4b-	.
=75	=75	=75	=75
*	*	*^	*
4D	4V7	2F	(4c 4e-	12fL
.	.	.	.	12a
.	.	.	.	12ccJ
4D	4Ic	.	4B-) 4d	12ffL
.	.	.	.	12bb-
.	.	.	.	12dddJ
4D	4V7	2F	(4c 4e-	12ffL
.	.	.	.	12aa
.	.	.	.	12cccJ
4D	4Ic	.	4B-) 4d	12ffL
.	.	.	.	12bb-
.	.	.	.	12dddJ
*	*	*v	*v	*
=76	=76	=76	=76
1D	1V	4F 4A 4c	12fffL
.	.	.	12ccc
.	.	.	12aaJ
.	.	4r	12ffL
.	.	.	12cc
.	.	.	12aJ
.	.	4r	12fL
.	.	.	12c
.	.	.	12AJ
.	.	12FL	4r
.	.	12C	.
.	.	12AAJ	.
*-	*-	*-	*-
!!!COM: Beethoven
!!!OTL: Zehn Variationen uber "la stessa, la stessissima" aus "Falstaff" von A. Salieri
!!!Variation: Variation 4 b
**function	**harm	**kern	**kern
*	*	*clefF4	*clefG2
*	*	*k[b-e-]	*k[b-e-]
*M4/4	*M4/4	*M4/4	*M4/4
*B-:	*B-:	*B-:	*B-:
=77	=77	=77	=77
*	*	*^	*
1D	1V	[1FF	2r	12FL
.	.	.	.	12A
.	.	.	.	12cJ
.	.	.	.	12fL
.	.	.	.	12a
.	.	.	.	12ccJ
.	.	.	4r	12ff'L
.	.	.	.	12f
.	.	.	.	12aJ
.	.	.	(4F	12ff'L
.	.	.	.	12f
.	.	.	.	12aJ
=78	=78	=78	=78	=78
4D	4V/V	1FF]	4E	12ff'L
.	.	.	.	12g
.	.	.	.	12b-J
4D	4V7d	.	4E-	12ff'L
.	.	.	.	12a
.	.	.	.	12ccJ
4D	4Ib	.	4D	12ff'L
.	.	.	.	12b-
.	.	.	.	12ddJ
4D	4V7c	.	4C	12ff'L
.	.	.	.	12a
.	.	.	.	12ee-J
=79	=79	=79	=79	=79
1T	1I	4BB-	4BB-)	12ff'L
.	.	.	.	12b-
.	.	.	.	12ddJ
*	*	*v	*v	*
.	.	4r	12bb-'L
.	.	.	12dd
.	.	.	12ffJ
.	.	2r	12ddd'L
.	.	.	12ff
.	.	.	12bb-J
.	.	.	12fff'L
.	.	.	12bb-
.	.	.	12dddJ
=80	=80	=80	=80
2T	2Ib	4r	12fffL
.	.	.	12bb-
.	.	.	12dddJ
.	.	4d'	12ffL
.	.	.	12ddd
.	.	.	12bb-J
4P	4iib	4e-'	12ggL
.	.	.	12ccc
.	.	.	12bb-J
4D	4V	4f'	12ffL
.	.	.	12ccc
.	.	.	12aaJ
=81	=81	=81	=81
1T	1I	4B-	12dddL
.	.	.	12ff
.	.	.	12bb-J
.	.	4r	12ddL
.	.	.	12ff
.	.	.	12b-J
.	.	2r	12ddL
.	.	.	12f
.	.	.	12b-J
.	.	.	12ffL
.	.	.	12b-
.	.	.	12ddJ
=82	=82	=82	=82
2T	2I	4r	12ffL
.	.	.	12b-
.	.	.	12ddJ
.	.	4D'	12fL
.	.	.	12dd
.	.	.	12b-J
4T	4iib	4E-'	12gL
.	.	.	12cc
.	.	.	12b-J
4T	4V	4F'	12fL
.	.	.	12cc
.	.	.	12aJ
=83	=83	=83	=83
1T	1I	4BB-	12b-L
.	.	.	12f
.	.	.	12dJ
.	.	4r	12B-L
.	.	.	12F
.	.	.	12DJ
.	.	4BBB- 4BB-	2r
.	.	4r	.
*-	*-	*-	*-
!!!COM: Beethoven
!!!OTL: Zehn Variationen uber "la stessa, la stessissima" aus "Falstaff" von A. Salieri
!!!Variation: Variation 5 a
**function	**harm	**kern	**kern
*	*	*clefF4	*clefG2
*	*	*k[b-e-a-d-g-]	*k[b-e-a-d-g-]
*M4/4	*M4/4	*M4/4	*M4/4
*b-:	*b-:	*b-:	*b-:
=84	=84	=84	=84
*	*	*^	*^
1T	1i	1BB-	(8B-L	2d- 2f	(4.b-
.	.	.	8F	.	.
.	.	.	8B-	.	.
.	.	.	8FJ	.	8cc
.	.	.	8B-L	2d- 2f	4.dd-
.	.	.	8F	.	.
.	.	.	8B-	.	.
.	.	.	8FJ)	.	8b-)
=85	=85	=85	=85	=85	=85
1T	1V7	1BB- 1A	(8E-L	1e- 1g- 1a	(4.cc
.	.	.	8F	.	.
.	.	.	8E-	.	.
.	.	.	8FJ	.	8dd-
.	.	.	8E-L	.	4ee-)
.	.	.	8F	.	.
.	.	.	8E-	.	4r
.	.	.	8FJ)	.	.
=86	=86	=86	=86	=86	=86
1T	1V7	1BB- 1A	(8E-L	2e- 2g- 2a	(4.cc
.	.	.	8F	.	.
.	.	.	8E-	.	.
.	.	.	8FJ	.	8dd-
.	.	.	8E-L	2e- 2g- 2a	4.ee-
.	.	.	8F	.	.
.	.	.	8E-	.	.
.	.	.	8FJ)	.	8cc)
=87	=87	=87	=87	=87	=87
1T	1i	1BB- 1B-	(8D-L	2.f 2.b-	(4.dd-
.	.	.	8F	.	.
.	.	.	8D-	.	.
.	.	.	8FJ	.	8ee-
.	.	.	8D-L	.	4ff)
.	.	.	8F	.	.
.	.	.	8D-	4r	8r
.	.	.	8FJ)	.	(8ff
=88	=88	=88	=88	=88	=88
1T	1ivc	1BB- 1B-	(8E-L	[2g-	4.gg-
.	.	.	8G-	.	.
.	.	.	8E-	.	.
.	.	.	8G-J	.	8cc-)
.	.	.	8E-L	4.g-]	4.b-
.	.	.	8G-	.	.
.	.	.	8E-	.	.
.	.	.	8G-J)	8g-	(8gg-
=89	=89	=89	=89	=89	=89
1T	1i	1BB- 1B-	(8D-L	[2f	4.ff
.	.	.	8F	.	.
.	.	.	8D-	.	.
.	.	.	8FJ	.	8a)
.	.	.	8D-L	4.f]	4.b-
.	.	.	8F	.	.
.	.	.	8D-	.	.
*	*	*	*	*v	*v
.	.	.	8BB-J)	(8e 8ee
=90	=90	=90	=90	=90
4D	4V	2FF	(8AAL 8C	4.f) 4.ff
.	.	.	8F	.
4D	4ic	.	8BB- 8D-	.
.	.	.	8FJ)	(8e 8ee
4D	4V	2FF	(8AAL 8C	4.f) 4.ff
.	.	.	8F	.
4D	4ic	.	8BB- 8D-	.
.	.	.	8FJ)	(8e 8ee
*	*	*v	*v	*
=91	=91	=91	=91
1D	1V	8FFL 8AA 8C	4f) 4ff
.	.	(8F	.
.	.	8E	4r
.	.	8FJ	.
.	.	8EL	4.r
.	.	8F	.
.	.	8E	.
.	.	8FJ)	8f
*-	*-	*-	*-
!!!COM: Beethoven
!!!OTL: Zehn Variationen uber "la stessa, la stessissima" aus "Falstaff" von A. Salieri
!!!Variation: Variation 5 b
**function	**harm	**kern	**kern
*	*	*clefF4	*clefG2
*	*	*k[b-e-a-d-g-]	*k[b-e-a-d-g-]
*M4/4	*M4/4	*M4/4	*M4/4
*b-:	*b-:	*b-:	*b-:
=92	=92	=92	=92
1D	1V	(8G-L	(8g-L
.	.	8F	8f
.	.	8G-	8g-
.	.	8FJ	8fJ
.	.	8G-L	8g-L
.	.	8F	8f
.	.	8G-	8g-
.	.	8FJ)	8fJ)
=93	=93	=93	=93
1D	1V7d	(8E-L	(4.g-
.	.	8F	.
.	.	8E-	.
.	.	8FJ	8A 8a
.	.	8E-L	4.B- 4.b-
.	.	8F	.
.	.	8E-	.
.	.	8FJ)	8c) 8cc
=94	=94	=94	=94
*	*	*^	*
1D	1i	1BB-	(8D-L	(4.d- 4.dd-
.	.	.	8F	.
.	.	.	8D-	.
.	.	.	8FJ	8c 8cc
.	.	.	8D-L	4.d- 4.dd-
.	.	.	8F	.
.	.	.	8D-	.
.	.	.	8FJ)	8e) 8ee
=95	=95	=95	=95	=95
2D	2V	1FF	(8AAL 8C	(4.f 4.ff
.	.	.	8F	.
.	.	.	8AA 8C	.
.	.	.	8FJ)	8e 8ee
2D	2V7	.	(8CL 8E-	4.f 4.ff
.	.	.	8F	.
.	.	.	8C 8E-	.
.	.	.	8FJ)	8f) 8ff
=96	=96	=96	=96	=96
1T	1i	1BB-	(8D-L	(4.b- 4.bb-
.	.	.	8F	.
.	.	.	8D-	.
.	.	.	8FJ	8cc 8ccc
.	.	.	8D-L	4.dd- 4.ddd-
.	.	.	8F	.
.	.	.	8D-	.
.	.	.	8FJ)	8ee) 8eee
=97	=97	=97	=97	=97
2T	2V	1FF	(8AAL 8C	(4.ff 4.fff
.	.	.	8F	.
.	.	.	8AA 8C	.
.	.	.	8FJ	8ee 8eee
2T	2V7	.	8CL 8E-	4.ff 4.fff
.	.	.	8F	.
.	.	.	8C 8E-	.
.	.	.	8FJ)	8ff) 8fff
=98	=98	=98	=98	=98
1T	1i	2BB-	(8D-L	4b- 4bb-
.	.	.	8F	.
.	.	.	8D-	4r
.	.	.	8FJ)	.
.	.	4BB-	4BB-	2r
*	*	*v	*v	*
.	.	4r	.
*-	*-	*-	*-
!!!COM: Beethoven
!!!OTL: Zehn Variationen uber "la stessa, la stessissima" aus "Falstaff" von A. Salieri
!!!Variation: Variation 6 a
**function	**harm	**kern	**kern
*	*	*clefF4	*clefG2
*	*	*k[b-e-]	*k[b-e-]
*M4/4	*M4/4	*M4/4	*M4/4
*B-:	*B-:	*B-:	*B-:
=99	=99	=99	=99
1T	1I	2BB-	1r
.	.	[2D	.
=100	=100	=100	=100
*	*	*^	*
2T	2Ib	8DL]	2F	1r
.	.	16CL	.	.
.	.	16DJJ	.	.
.	.	8E-'L	.	.
.	.	8D'J	.	.
2T	2ii	8C'L	[2e-	.
.	.	8BB-'	.	.
.	.	8AA'	.	.
.	.	8GG'J	.	.
=101	=101	=101	=101	=101
1T	1V7	4FF	4e-]	2cc
.	.	4r	8d'L	.
.	.	.	8c'J	.
.	.	2r	8B-'L	[2ee-
.	.	.	8A'	.
.	.	.	8G'	.
.	.	.	8F'J	.
=102	=102	=102	=102	=102
*	*	*v	*v	*
*	*	*	*^
1T	1I	4B-	4ee-]	2ff
.	.	4r	8dd'L	.
.	.	.	8cc'J	.
.	.	2r	8cc-'L	[2bb-
.	.	.	8b-'	.
.	.	.	8a'	.
.	.	.	8a-'J	.
=103	=103	=103	=103	=103
1T	1IV	1e- 1g	4gg	4bb-]
*	*	*	*v	*v
.	.	.	(8ff#L 8aa
.	.	.	8ggJ 8bb-
.	.	.	8aaL 8ccc
.	.	.	8gg) 8bb-
.	.	.	8ff' 8aa'
.	.	.	8ee-'J 8gg'
=104	=104	=104	=104
1T	1I	1d 1f	8dd'L 8ff'
.	.	.	8ee-' 8gg'
.	.	.	8ff' 8aa'
.	.	.	8gg'J 8bb-'
.	.	.	8aa'L 8ccc'
.	.	.	8bb-' 8ddd'
.	.	.	8ccc' 8eee-'
.	.	.	[8dddJ [8fff
=105	=105	=105	=105
4D	4V7b	4A' 4f'	8ddd] 8fff]
.	.	.	4ccc 4eee-
4D	4I	4B-' 4f'	.
.	.	.	4bb- 4ddd
4D	4V	4F' 4f'	.
.	.	.	4aa 4ccc
4D	4I	4B-' 4f'	.
.	.	.	8bb- 8ddd
=106	=106	=106	=106
1D	1V	4F 4f	8aa'L 8ccc'
.	.	.	8aa'
.	.	4r	8ff'
.	.	.	8cc'J
.	.	2r	8a'L
.	.	.	8f'
.	.	.	8c'
.	.	.	8A'J
*-	*-	*-	*-
!!!COM: Beethoven
!!!OTL: Zehn Variationen uber "la stessa, la stessissima" aus "Falstaff" von A. Salieri
!!!Variation: Variation 6 b
**function	**harm	**kern	**kern
*	*	*clefF4	*clefG2
*	*	*k[b-e-]	*k[b-e-]
*M4/4	*M4/4	*M4/4	*M4/4
*B-:	*B-:	*B-:	*B-:
=107	=107	=107	=107
1D	1V	4.FF	4F
.	.	.	4r
.	.	8F	.
.	.	8FL	2r
.	.	8F	.
.	.	8F	.
.	.	8FJ	.
=108	=108	=108	=108
*	*	*	*clefF4
4D	4viio/V	4E' 4G'	4.F
4D	4V7d	4E-' 4A'	.
.	.	.	8f
4D	4Ib	4D' 4B-'	8fL
.	.	.	8f
4D	4Vc	4C' 4c'	8f
.	.	.	8fJ
=109	=109	=109	=109
*	*	*	*clefG2
4D	4I	4BB- 4B-	4.d 4.b-
4P	4ii	4c' 4e-'	.
.	.	.	8bb-
4P	4Ib	4d' 4f'	8bb-L
.	.	.	8bb-
4P	4IV	4e-' 4g'	8bb-
.	.	.	8bb-J
=110	=110	=110	=110
2D	2Ic	4.F	4dd' 4ff'
.	.	.	4b' 4dd'
.	.	8f	.
2D	2V	8fL	4cc' 4ee-'
.	.	8f	.
.	.	8f	4a' 4cc'
.	.	8fJ	.
=111	=111	=111	=111
1T	1I	4B-	4b-' 4dd'
.	.	4r	4dd' 4ff'
.	.	2r	4ff' 4bb-'
.	.	.	4bb-' 4ddd'
=112	=112	=112	=112
2T	2Ic	4.FF	4ddd' 4fff'
.	.	.	4bb' 4ddd'
.	.	8F	.
2T	2V	8FL	4ccc' 4eee-'
.	.	8F	.
.	.	8F	4aa' 4ccc'
.	.	8FJ	.
=113	=113	=113	=113
1T	1I	4BB-	4bb-
.	.	4r	4b-
.	.	4BBB-	2r
.	.	4r	.
*-	*-	*-	*-
!!!COM: Beethoven
!!!OTL: Zehn Variationen uber "la stessa, la stessissima" aus "Falstaff" von A. Salieri
!!!Variation: Variation 7 a
**function	**harm	**kern	**kern
*	*	*clefF4	*clefG2
*	*	*k[b-e-]	*k[b-e-]
*M4/4	*M4/4	*M4/4	*M4/4
*B-:	*B-:	*B-:	*B-:
=114	=114	=114	=114
1T	1I	4BBB-	(8BB-L
.	.	.	16CL
.	.	.	16DJJ
.	.	4r	16E-LL
.	.	.	16F
.	.	.	16G
.	.	.	16AJJ
.	.	2r	16B-LL
.	.	.	16c
.	.	.	16d
.	.	.	16e-JJ
.	.	.	16fLL
.	.	.	16g
.	.	.	16a
.	.	.	16b-JJ)
=115	=115	=115	=115
2T	2ii	1r	8cc'L
.	.	.	8dd'
.	.	.	8ee-'
.	.	.	8ee'J
2T	2V	.	8ff'L
.	.	.	8ff#'
.	.	.	8gg'
.	.	.	8aa'J
=116	=116	=116	=116
*	*	*	*^
1T	1V7	(8FFL	2.cc 2.ee-	(4bb-
.	.	16GGL	.	.
.	.	16AAJJ	.	.
.	.	16BB-LL	.	2aa)
.	.	16C	.	.
.	.	16D	.	.
.	.	16EJJ)	.	.
.	.	8F'L	.	.
.	.	8G'	.	.
*	*	*	*v	*v
.	.	8A'	[4ccc
.	.	8B-'J	.
=117	=117	=117	=117
2.T	2.V7	8c'L	4ccc]
.	.	8d'	.
.	.	8e-'	(2ee-
.	.	8f'J	.
.	.	8f#'L	.
.	.	8g'	.
4T	4I	8a'	4dd)
.	.	8b-'J	.
=118	=118	=118	=118
1T	1IV	4e-	8gg'L
.	.	.	(16ffL
.	.	.	16ee-JJ
.	.	4r	16ddLL
.	.	.	16cc
.	.	.	16b-
.	.	.	16aJJ
.	.	2r	16gLL
.	.	.	16f
.	.	.	16e-
.	.	.	16dJJ
.	.	.	16cLL
.	.	.	16B-
.	.	.	16A
.	.	.	16GJJ)
=119	=119	=119	=119
1T	1Ib	8dL	4F'
.	.	(16cL	.
.	.	16B-JJ	.
.	.	16ALL	4f' 4ff'
.	.	16G	.
.	.	16F	.
.	.	16E-JJ	.
.	.	16DLL	4r
.	.	16C	.
.	.	16BB-	.
.	.	16AAJJ	.
.	.	16GGLL	4ff 4fff
.	.	16FF	.
.	.	16EE-	.
.	.	16DDJJ)	.
=120	=120	=120	=120
2D	2V	4CC'	16eee-LL
.	.	.	16ddd
.	.	.	16ccc
.	.	.	16bb-JJ
.	.	4FF'	16aaLL
.	.	.	16gg
.	.	.	16ff
.	.	.	16ee-JJ
2D	2I	4BBB-'	16ddLL
.	.	.	16cc
.	.	.	16b-
.	.	.	16aJJ
.	.	4FF'	16gLL
.	.	.	16f
.	.	.	16e-
.	.	.	16dJJ
=121	=121	=121	=121
1D	1V	4FFF	16cLL
.	.	.	16f
.	.	.	16c
.	.	.	16AJJ
.	.	4r	16FLL
.	.	.	16c
.	.	.	16A
.	.	.	16FJJ
.	.	2r	16CLL
.	.	.	16A
.	.	.	16F
.	.	.	16CJJ
.	.	.	16AALL
.	.	.	16F
.	.	.	16C
.	.	.	16AAJJ
*-	*-	*-	*-
!!!COM: Beethoven
!!!OTL: Zehn Variationen uber "la stessa, la stessissima" aus "Falstaff" von A. Salieri
!!!Variation: Variation 7 b
**function	**harm	**kern	**kern
*	*	*clefF4	*clefG2
*	*	*k[b-e-]	*k[b-e-]
*M4/4	*M4/4	*M4/4	*M4/4
*B-:	*B-:	*B-:	*B-:
=122	=122	=122	=122
1D	1V	4FFF	8FFL
.	.	.	16GGL
.	.	.	16AAJJ
.	.	[2.FF	16BB-LL
.	.	.	16C
.	.	.	16D
.	.	.	16EJJ
.	.	.	16FLL
.	.	.	16G
.	.	.	16A
.	.	.	16B-JJ
*	*	*^	*
.	.	.	(4F	16cLL
.	.	.	.	16d
.	.	.	.	16e
.	.	.	.	16fJJ
=123	=123	=123	=123	=123
4D	4viio/V	1FF]	4E	16G'LL
.	.	.	.	(16g
.	.	.	.	16f#
.	.	.	.	16gJJ)
4D	4V7d	.	4E-	16A'LL
.	.	.	.	(16a
.	.	.	.	16g#
.	.	.	.	16aJJ)
4D	4Ib	.	4D	16B-'LL
.	.	.	.	(16b-
.	.	.	.	16a
.	.	.	.	16b-JJ)
4D	4Vc	.	4C	16c'LL
.	.	.	.	(16cc
.	.	.	.	16b
.	.	.	.	16ccJJ)
=124	=124	=124	=124	=124
1T	1I	4BB-	4BB-)	16d'LL
.	.	.	.	(16dd
.	.	.	.	16cc#
.	.	.	.	16ddJJ)
*	*	*v	*v	*
.	.	4r	16f'LL
.	.	.	(16ff
.	.	.	16ee
.	.	.	16ffJJ)
.	.	2r	16b-'LL
.	.	.	(16bb-
.	.	.	16aa
.	.	.	16bb-JJ)
.	.	.	16dd'LL
.	.	.	(16ddd
.	.	.	16ccc#
.	.	.	16dddJJ)
=125	=125	=125	=125
4T	4Ib	16D'LL	8ffL 8fff
.	.	(16d	.
.	.	16c#	8bb-J 8ddd
.	.	16dJJ)	.
4P	4IV7	16E-'LL	8r
.	.	(16e-	.
.	.	16d	8bb- 8ddd
.	.	16e-JJ)	.
4P	4V7b/V	16E'LL	8r
.	.	(16e	.
.	.	16d#	8bb- 8ccc
.	.	16eJJ)	.
4D	4V	16F'LL	8r
.	.	(16f	.
.	.	16e	8aa 8ccc
.	.	16fJJ)	.
=126	=126	=126	=126
1T	1I	4BB- 4B-	16dd'LL
.	.	.	(16ddd
.	.	.	16ccc#
.	.	.	16dddJJ)
.	.	4r	16b-'LL
.	.	.	(16bb-
.	.	.	16aa
.	.	.	16bb-JJ)
.	.	2r	16f'LL
.	.	.	(16ff
.	.	.	16ee
.	.	.	16ffJJ)
.	.	.	16d'LL
.	.	.	(16dd
.	.	.	16cc#
.	.	.	16ddJJ)
=127	=127	=127	=127
*	*	*	*clefF4
4T	4Ib	16DD'LL	8r
.	.	(16D	.
.	.	16C#	8B- 8d
.	.	16DJJ)	.
4T	4IV7	16EE-'LL	8r
.	.	(16E-	.
.	.	16D	8B- 8d
.	.	16E-JJ)	.
4T	4V7b/V	16EE'LL	8r
.	.	(16E	.
.	.	16D#	8B- 8c
.	.	16EJJ)	.
4T	4V	16FF'LL	8r
.	.	(16F	.
.	.	16E	8A 8c
.	.	16FJJ)	.
=128	=128	=128	=128
1T	1I	16BBB-'LL	4B-
.	.	(16BB-	.
.	.	16AA	.
.	.	16BB-JJ	.
.	.	16AALL	4r
.	.	16BB-	.
.	.	16FF	.
.	.	16DDJJ)	.
.	.	4BBB-	2r
.	.	4r	.
*-	*-	*-	*-
!!!COM: Beethoven
!!!OTL: Zehn Variationen uber "la stessa, la stessissima" aus "Falstaff" von A. Salieri
!!!Variation: Variation 8 a
**function	**harm	**kern	**kern
*	*	*clefG2	*clefG2
*	*	*k[b-e-]	*k[b-e-]
*M4/4	*M4/4	*M4/4	*M4/4
*B-:	*B-:	*B-:	*B-:
=129	=129	=129	=129
*	*	*	*^
1T	1I	1b- 1dd	1ff	(2bb-
.	.	.	.	4.ddd
.	.	.	.	8ccc)
=130	=130	=130	=130	=130
1T	1V7c	2.cc 2.ee-	2.ff	(4.bb-
.	.	.	.	8aa
.	.	.	.	4eee-')
.	.	4r	4r	4r
*	*	*clefF4	*	*
=131	=131	=131	=131	=131
1T	1V7	1F 1e-	1a	(2cc
.	.	.	.	4.ee-
.	.	.	.	8dd)
=132	=132	=132	=132	=132
1T	1I	2.B- 2.d	2.f	(4.cc
.	.	.	.	8b-
.	.	.	.	4ff')
.	.	4r	4r	4r
*	*	*	*v	*v
=133	=133	=133	=133
1T	1IV	1EE- [1BB-	(2G
.	.	.	4.B-
.	.	.	8G)
=134	=134	=134	=134
2T	2Ib	4DD 4BB-]	4F
.	.	(4D 4F	(4B- 4f
4T	4V7c	4C 4F	4A 4e-
4T	4I	4BB-) 4F	4B-) 4d
=135	=135	=135	=135
*	*	*^	*
1T	1V	1FF	(4.F	(4.A 4.c
.	.	.	8E)	8B-) 8d
.	.	.	(4.F	(4.A 4.c
.	.	.	8E)	8B-) 8d
*	*	*v	*v	*
=136	=136	=136	=136
1D	1V7	(8.FL	4A 4c
.	.	16GJk	.
.	.	8.E-L	4r
.	.	16FJk	.
.	.	8.DL	2r
.	.	16E-Jk	.
.	.	8.CL	.
.	.	16DJk)	.
*-	*-	*-	*-
!!!COM: Beethoven
!!!OTL: Zehn Variationen uber "la stessa, la stessissima" aus "Falstaff" von A. Salieri
!!!Variation: Variation 8 a2
**function	**harm	**kern	**kern
*	*	*clefF4	*clefG2
*	*	*k[b-e-]	*k[b-e-]
*M4/4	*M4/4	*M4/4	*M4/4
*B-:	*B-:	*B-:	*B-:
=137	=137	=137	=137
1T	1I	(2BB-	1r
.	.	4.D	.
.	.	8C)	.
=138	=138	=138	=138
1T	1V7b	(4.BB-	[2ee-
.	.	8AA	.
.	.	4F')	(12ee-L]
.	.	.	12cc
.	.	.	12aJ)
.	.	4r	(12fL
.	.	.	12e-
.	.	.	12cJ)
=139	=139	=139	=139
1T	1vii7c	(2E-	(4B-
.	.	.	4A)
.	.	4.G	2r
.	.	8F)	.
=140	=140	=140	=140
1T	1V7b/IV	(4.E-	[2aa-
.	.	8D	.
.	.	4B-')	(12aa-L]
.	.	.	12ff
.	.	.	12ddJ)
.	.	4r	(12b-L
.	.	.	12cc
.	.	.	12a-J)
=141	=141	=141	=141
1T	1IV	(2E- [2B-	(2g
.	.	4.G 4.B-]	4.b-
.	.	8E-) 8B-	8g)
=142	=142	=142	=142
2T	2Ib	4D 4B-	4f
.	.	(4d 4f	(4b- 4ff
4T	4V7c	4c 4f	4a 4ee-
4T	4I	4B-) 4f	4b-) 4dd
=143	=143	=143	=143
*	*	*^	*
1T	1V	[1F	(4.f	(4.a 4.cc
.	.	.	8e)	8b-) 8dd
.	.	.	(4.f	(4.a 4.cc
.	.	.	8e)	8b-) 8dd
*	*	*v	*v	*
=144	=144	=144	=144
1D	1V	88f 8FL]	8aL 8cc
.	.	(8F	(8f
.	.	8E	8e
.	.	8FJ	8fJ
.	.	8EL	8eL
.	.	8F	8f
.	.	8C	8c
.	.	8AAJ)	8AJ)
*-	*-	*-	*-
!!!COM: Beethoven
!!!OTL: Zehn Variationen uber "la stessa, la stessissima" aus "Falstaff" von A. Salieri
!!!Variation: Variation 8 b
**function	**harm	**kern	**kern
*	*	*clefF4	*clefG2
*	*	*k[b-e-]	*k[b-e-]
*M4/4	*M4/4	*M4/4	*M4/4
*B-:	*B-:	*B-:	*B-:
=145	=145	=145	=145
1D	1V	2FF	2F
.	.	(4..AA	(4..A
.	.	16FF)	16F)
=146	=146	=146	=146
1D	1V7	(8.BB-L	(8.B-L
.	.	16GGJk	16GJk
.	.	8.CL	8.cL
.	.	16AAJk	16AJk
.	.	8.DL	8.dL
.	.	16BB-Jk	16B-Jk
.	.	8.E-L	8.e-L
.	.	16CJk)	16cJk)
=147	=147	=147	=147
1D	1Ib	4D 4F	(8.fL
.	.	.	16dJk
.	.	4r	8.b-L
.	.	.	16fJk
.	.	2r	8.ddL
.	.	.	16b-Jk)
.	.	.	([4ff
=148	=148	=148	=148
*	*	*^	*
*	*	*	*	*^
2D	2Ic	1F	(2d	2b-	2ff]
2D	2V	.	4.e-	2a	4.gg
.	.	.	8c)	.	8ee-)
*	*	*	*	*v	*v
*	*	*v	*v	*
=149	=149	=149	=149
1T	1I	4d 4B-	(8.ddL
.	.	.	16ffJk
.	.	4r	8.bb-L
.	.	.	16ffJk
.	.	2r	8.dddL
.	.	.	16bb-Jk)
.	.	.	([4fff
*	*	*clefG2	*
=150	=150	=150	=150
*	*	*^	*
*	*	*	*	*^
2T	2Ic	1f	(2dd	2bb-	(2fff]
2T	2V	.	4.cc	2aa	4.eee-
.	.	.	8ee-)	.	8ccc
=151	=151	=151	=151	=151	=151
1T	1I	4b-	4dd	4bb-	4bb-)
*	*	*v	*v	*	*
*	*	*	*v	*v
*	*	*clefF4	*
.	.	8r	4r
.	.	8B-	.
.	.	4BB-	2r
.	.	4r	.
*-	*-	*-	*-
!!!COM: Beethoven
!!!OTL: Zehn Variationen uber "la stessa, la stessissima" aus "Falstaff" von A. Salieri
!!!Variation: Variation 9 a
**function	**harm	**kern	**kern
*	*	*clefF4	*clefG2
*	*	*k[b-e-]	*k[b-e-]
*M4/4	*M4/4	*M4/4	*M4/4
*B-:	*B-:	*B-:	*B-:
=152	=152	=152	=152
*	*	*	*^
.	.	.	.	q8a
1T	1I	16r	4r	4b-'
.	.	(16B-LL	.	.
.	.	16F	.	.
.	.	16DJJ)	.	.
.	.	4BB-'	4d 4f	4r
.	.	.	.	q8a
.	.	16r	4r	4b-'
.	.	(16B-LL	.	.
.	.	16F	.	.
.	.	16DJJ)	.	.
.	.	4BB-'	4d 4f	4r
=153	=153	=153	=153	=153
.	.	.	.	q8b
1T	1V7	16r	4r	4cc'
.	.	(16FLL	.	.
.	.	16C	.	.
.	.	16AAJJ)	.	.
.	.	4FF'	4e- 4f 4a	4r
.	.	2r	2r	2ff
=154	=154	=154	=154	=154
.	.	.	.	q8b
1T	1V7	16r	4r	4cc'
.	.	(16FLL	.	.
.	.	16C	.	.
.	.	16AAJJ)	.	.
.	.	4FF'	4e- 4f 4a	4r
.	.	.	.	q8b
.	.	16r	4r	4cc'
.	.	(16FLL	.	.
.	.	16C	.	.
.	.	16AAJJ)	.	.
.	.	4FF'	4e- 4f 4a	4r
=155	=155	=155	=155	=155
.	.	.	.	q8cc#
1T	1I	16r	4r	4dd'
.	.	(16BB-LL	.	.
.	.	16FF	.	.
.	.	16DDJJ)	.	.
.	.	4BBB-'	4d 4f 4b-	4r
.	.	2r	2r	2bb-
=156	=156	=156	=156	=156
.	.	.	.	q8a
1T	1IVc	16r	4r	4b-'
.	.	(16B-LL	.	.
.	.	16G	.	.
.	.	16E-JJ)	.	.
.	.	4BB-'	4e- 4g	4r
.	.	2r	2r	2bb-
=157	=157	=157	=157	=157
.	.	.	.	q8a
1T	1I	16r	4r	4b-'
.	.	(16B-LL	.	.
.	.	16F	.	.
.	.	16DJJ)	.	.
.	.	4BB-'	4d 4f	4r
.	.	2r	2r	2bb-
*	*	*	*v	*v
=158	=158	=158	=158
4D	4V7	[1FF	4ff' 4aa' 4ccc' 4fff'
4D	4Ic	.	4ff' 4bb-' 4ddd' 4fff'
4D	4V7	.	4ff' 4aa' 4ccc' 4fff'
4D	4Ic	.	4ff' 4bb-' 4ddd' 4fff'
=159	=159	=159	=159
1D	1V	(4.FF]	4ff' 4aa' 4ccc' 4fff'
.	.	.	4r
.	.	16EELL	.
.	.	16FFJJ)	.
.	.	8AA'L	2r
.	.	8FF'	.
.	.	8CC'	.
.	.	8AAA'J	.
*-	*-	*-	*-
!!!COM: Beethoven
!!!OTL: Zehn Variationen uber "la stessa, la stessissima" aus "Falstaff" von A. Salieri
!!!Variation: Variation 9 b
**function	**harm	**kern	**kern
*	*	*clefF4	*clefG2
*	*	*k[b-e-]	*k[b-e-]
*M4/4	*M4/4	*M4/4	*M4/4
*B-:	*B-:	*B-:	*B-:
=160	=160	=160	=160
*	*	*	*^
.	.	.	.	q8e
1D	1V	16r	4r	4f'
.	.	(16FFFLL	.	.
.	.	16AAA	.	.
.	.	16CCJJ)	.	.
.	.	4FF'	4F 4A	4r
.	.	.	.	q8e
.	.	16r	4r	4f'
.	.	(16FFLL	.	.
.	.	16AA	.	.
.	.	16CJJ)	.	.
.	.	4F'	4F 4A	4r
=161	=161	=161	=161	=161
.	.	.	.	q8e
4D	4viio/V	8r	8r	4f'
.	.	8FF 8E	8G 8B-	.
.	.	.	.	q8e
4D	4V7	8r	8r	4f'
.	.	8FF 8E-	8A 8c	.
.	.	.	.	q8e
4D	4Ic	8r	8r	4f'
.	.	8FF 8D	8B- 8d	.
.	.	.	.	q8e
4D	4V7	8r	8r	4f'
.	.	8FF 8C	8A 8e-	.
*	*	*	*v	*v
=162	=162	=162	=162
.	.	.	q8e
1D	1I	4BBB- 4BB-	8f'L
.	.	.	8B-'J 8d'
.	.	.	q8a
.	.	4r	8b-'L
.	.	.	8d'J 8fa'
.	.	.	q8cc#
.	.	2r	8dd'L
.	.	.	8f'J 8b-'
.	.	.	q8ee
.	.	.	8ff'L
.	.	.	q8ee
.	.	.	8ff'J
=163	=163	=163	=163
2D	2Ic	4r	1ff
.	.	4F 4B- 4d	.
2D	2V7	4r	.
.	.	4F 4c 4e-	.
=164	=164	=164	=164
.	.	.	q8ee
1T	1I	4r	8ff'L
.	.	.	8b-'J 8dd'
.	.	.	q8aa
.	.	4B- 4d	8bb-'L
.	.	.	8dd'J 8ff'
.	.	.	q8ccc#
.	.	2r	8ddd'L
.	.	.	8ff'J 8bb-'
.	.	.	q8eee
.	.	.	8fff'L
.	.	.	q8eee
.	.	.	8fff'J
=165	=165	=165	=165
2T	2Ic	1FF	4r
.	.	.	4ff 4bb- 4ddd 4fff
2T	2V7	.	4r
.	.	.	4ff 4aa 4ccc 4fff
=166	=166	=166	=166
1T	1I	4BBB- 4BB-	4.bb-
.	.	4r	.
.	.	.	16aaLL
.	.	.	16bb-JJ
.	.	2r	4b-
.	.	.	4r
*-	*-	*-	*-
!!!COM: Beethoven
!!!OTL: Zehn Variationen uber "la stessa, la stessissima" aus "Falstaff" von A. Salieri
!!!Variation: Variation 10 a
**function	**harm	**kern	**kern
*	*	*clefF4	*clefG2
*	*	*k[b-e-]	*k[b-e-]
*M3/8	*M3/8	*M3/8	*M3/8
*B-:	*B-:	*B-:	*B-:
8T	8V	8r	8f
=167	=167	=167	=167
*	*	*	*^
4.T	4.I	4BB- 4F 4B-	4d	(8fL
.	.	.	.	8b-)
.	.	8BB- 8F 8B-	8d	8b-'J
=168	=168	=168	=168	=168
.	.	.	.	q16cc
4.T	4.I	4BB- 4F 4B-	4d	(16b-LL
.	.	.	.	16a
.	.	.	.	16b-
.	.	.	.	16ccJ)
.	.	8BB- 8F 8B-	8d	8dd'J
=169	=169	=169	=169	=169
4.T	4.V7	4BB- 4E- 4F 4A	8e-	8b
.	.	.	[4e-	([4cc
.	.	8BB- 8E- 8F 8A	.	.
=170	=170	=170	=170	=170
4.T	4.V7	4BB- 4E- 4F 4A	8e-L]	8ccL]
.	.	.	8e-	8f)
.	.	8BB- 8E- 8F 8A	8e-J	8f'J
=171	=171	=171	=171	=171
4.T	4.V7	4BB- 4E- 4F 4A	4e-	(8fL
.	.	.	.	8cc)
.	.	8BB- 8E- 8F 8A	8e-	8cc'J
*	*	*	*v	*v
=172	=172	=172	=172
4.T	4.V7	4BB- 4E- 4F 4A	(16ddLL
.	.	.	16cc
.	.	.	16b
.	.	.	16ccJ)
.	.	8BB- 8E- 8F 8A	8ff'J
=173	=173	=173	=173
4.T	4.I	4BB- 4D 4F 4B-	8cc#
*	*	*	*^
.	.	.	([4d	[4dd
.	.	8BB- 8D 8F 8B-	.	.
=174	=174	=174	=174	=174
4.T	4.I	4BB- 4D 4F 4B-	8dL]	8dd]
.	.	.	8r	8b-)
.	.	8BB- 8D 8F 8B-	8r	8b-'J
*	*	*	*v	*v
=175	=175	=175	=175
.	.	.	q16cc
.	.	.	q16b-
.	.	.	q16a
4.T	4.IVc	4BB- 4E- 4G	(8b-L
.	.	.	8ee-J)
.	.	8BB- 8E- 8G	16r
.	.	.	16ee-'
=176	=176	=176	=176
.	.	.	q16ff
.	.	.	q16ee-
.	.	.	q16dd
4.T	4.IVc	4BB- 4E- 4G	(8ee-L
.	.	.	8ggJ)
.	.	8BB- 8E- 8G	16r
.	.	.	16gg'
=177	=177	=177	=177
.	.	.	q16gg
.	.	.	q16ff
.	.	.	q16ee
4.T	4.I	4BB- 4D 4F	(8ffL
.	.	.	8bb-J)
.	.	8BB- 8D 8F	16r
.	.	.	16bb-'
=178	=178	=178	=178
.	.	.	q16ccc
.	.	.	q16bb-
.	.	.	q16aa
4.T	4.I	4BB- 4D 4F	(8bb-L
.	.	.	8dddJ)
.	.	8BB- 8D 8F	16r
.	.	.	16ddd'
=179	=179	=179	=179
.	.	.	q8eee
4D	4V	4FF 4C 4F	8fff'
.	.	.	4ff
8D	8I	8BB- 8D 8F	.
=180	=180	=180	=180
.	.	.	q8eee
4D	4V	4FF 4C 4F	8fff'
.	.	.	4ff
8D	8I	8BB- 8D 8F	.
=181	=181	=181	=181
.	.	.	q8eee
4.D	4.V	8FF 8C 8F	8fff'
.	.	8r	(8.ffL
.	.	8r	.
.	.	.	16eeJk
=182	=182	=182	=182
4.D	4.V7	4.r	16ee-LL
.	.	.	16cc
.	.	.	16a
.	.	.	16f
.	.	.	16e-
.	.	.	16cJJ)
*-	*-	*-	*-
!!!COM: Beethoven
!!!OTL: Zehn Variationen uber "la stessa, la stessissima" aus "Falstaff" von A. Salieri
!!!Variation: Variation 10 a2
**function	**harm	**kern	**kern
*	*	*clefF4	*clefG2
*	*	*k[b-e-]	*k[b-e-]
*M3/8	*M3/8	*M3/8	*M3/8
*B-:	*B-:	*B-:	*B-:
=183	=183	=183	=183
4.T	4.I	4BB- 4D 4F 4B-	(16b-LL
.	.	.	16f
.	.	.	16d)
.	.	.	16dd'
.	.	8BB- 8D 8F 8B-	16b-'
.	.	.	16f'JJ
=184	=184	=184	=184
4.T	4.I	4BB- 4D 4F 4B-	(16ffLL
.	.	.	16dd
.	.	.	16b-)
.	.	.	16bb-'
.	.	8BB- 8D 8F 8B-	16ff'
.	.	.	16dd'JJ
=185	=185	=185	=185
4.T	4.V7	4BB- 4E- 4F 4A	(16ee-LL
.	.	.	16cc
.	.	.	16a)
.	.	.	16aa'
.	.	8BB- 8E- 8F 8A	16ee-'
.	.	.	16cc'JJ
=186	=186	=186	=186
4.T	4.V7	4BB- 4E- 4F 4A	(16cccLL
.	.	.	16aa
.	.	.	16ee-)
.	.	.	16eee-'
.	.	8BB- 8E- 8F 8A	16ccc'
.	.	.	16aa'JJ
=187	=187	=187	=187
4.T	4.V7	4BB- 4E- 4F 4A	(16ee-LL
.	.	.	16cc
.	.	.	16a)
.	.	.	16aa'
.	.	8BB- 8E- 8F 8A	16ee-'
.	.	.	16cc'JJ
=188	=188	=188	=188
4.T	4.V7	4BB- 4E- 4F 4A	(16cccLL
.	.	.	16aa
.	.	.	16ee-)
.	.	.	16eee-'
.	.	8BB- 8E- 8F 8A	16ccc'
.	.	.	16aa'JJ
=189	=189	=189	=189
4.T	4.I	4BB- 4D 4F 4B-	(16ffLL
.	.	.	16dd
.	.	.	16b-)
.	.	.	16bb-'
.	.	8BB- 8D 8F 8B-	16ff'
.	.	.	16dd'JJ
=190	=190	=190	=190
4.T	4.I	4BB- 4D 4F 4B-	(16dddLL
.	.	.	16bb-
.	.	.	16ff)
.	.	.	16fff'
.	.	8BB- 8D 8F 8B-	16ddd'
.	.	.	16bb-'JJ
=191	=191	=191	=191
4.T	4.IVc	4BB- 4E- 4G	(16aaLL
.	.	.	16bb-)
.	.	.	(16ff#
.	.	.	16gg)
.	.	8BB- 8E- 8G	(16dd
.	.	.	16ee-JJ)
=192	=192	=192	=192
4.T	4.IVc	4BB- 4E- 4G	(16aLL
.	.	.	16b-)
.	.	.	(16f#
.	.	.	16g)
.	.	8BB- 8E- 8G	(16aa
.	.	.	16bb-JJ)
=193	=193	=193	=193
4.T	4.I	4BB- 4D 4F	(16aaLL
.	.	.	16bb-)
.	.	.	(16ee
.	.	.	16ff)
.	.	8BB- 8D 8F	(16cc#
.	.	.	16ddJJ)
=194	=194	=194	=194
4.T	4.I	4BB- 4D 4F	(16aLL
.	.	.	16b-)
.	.	.	(16e
.	.	.	16f)
.	.	8BB- 8D 8F	(16ee
.	.	.	16ffJJ)
=195	=195	=195	=195
4D	4V	8FF 8C 8F	(16eLL
.	.	.	16f)
.	.	4BB- 4D 4F	(16ee
.	.	.	16ff)
8D	8I	.	(16e
.	.	.	16fJJ)
=196	=196	=196	=196
4D	4V	8FF 8C 8F	(16eeLL
.	.	.	16ff)
.	.	4BB- 4D 4F	(16e
.	.	.	16f)
8D	8I	.	(16ee
.	.	.	16ffJJ)
=197	=197	=197	=197
4.D	4.V	4FF 4C 4F	(16eeLL
.	.	.	16ffJJ)
.	.	.	(16bLL
.	.	.	16ccJJ)
.	.	8r	(16g#LL
.	.	.	16aJJ)
=198	=198	=198	=198
4.D	4.V	4.r	(16eLL
.	.	.	16fJJ)
.	.	.	(16BLL
.	.	.	16cJJ)
.	.	.	(16G#LL
.	.	.	16AJJ)
*-	*-	*-	*-
!!!COM: Beethoven
!!!OTL: Zehn Variationen uber "la stessa, la stessissima" aus "Falstaff" von A. Salieri
!!!Variation: Variation 10 b
**function	**harm	**kern	**kern
*	*	*clefF4	*clefG2
*	*	*k[b-e-]	*k[b-e-]
*M3/8	*M3/8	*M3/8	*M3/8
*B-:	*B-:	*B-:	*B-:
=199	=199	=199	=199
*	*	*^	*
4.D	4.V	[4.FF	4FF	(16fLL
.	.	.	.	16c
.	.	.	.	16A
.	.	.	.	16f
.	.	.	8F	16c
.	.	.	.	16AJJ)
=200	=200	=200	=200	=200
4.D	4.V	4.FF]	4F	(16fLL
.	.	.	.	16c
.	.	.	.	16A
.	.	.	.	16f
.	.	.	8F	16c
.	.	.	.	16AJJ)
=201	=201	=201	=201	=201
4D	4V7b/V	[4.FF	4E	(16gLL
.	.	.	.	16c
.	.	.	.	16B-
.	.	.	.	16a
8D	8V7d	.	8E-	16f
.	.	.	.	16cJJ)
=202	=202	=202	=202	=202
4D	4Ib	4.FF]	4D	(16b-LL
.	.	.	.	16f
.	.	.	.	16d
.	.	.	.	16cc
8D	8V7c	.	8C	16a
.	.	.	.	16e-JJ)
=203	=203	=203	=203	=203
4.D	4.I	4BB-	4BB-	(16ddLL
.	.	.	.	16b-
.	.	.	.	16f)
.	.	.	.	16ff'
*	*	*v	*v	*
.	.	8r	16dd'
.	.	.	16b-'JJ
=204	=204	=204	=204
4.D	4.I	4.r	(16bb-LL
.	.	.	16ff
.	.	.	16dd)
.	.	.	16ddd'
.	.	.	16bb-'
.	.	.	16ff'JJ
*	*	*clefG2	*
=205	=205	=205	=205
4.D	4.Ic	8f	(16fffLL
.	.	.	16ddd
.	.	4ff	16bb-
.	.	.	16fff
.	.	.	16ddd
.	.	.	16bbJJ)
=206	=206	=206	=206
4.D	4.V7	8f	(16fffLL
.	.	.	16eee-
.	.	4ee- 4ff	16ccc
.	.	.	16fff
.	.	.	16ccc
.	.	.	16aaJJ)
=207	=207	=207	=207
4.T	4.I	4b- 4dd	(16fffLL
.	.	.	16ddd
.	.	.	16bb-)
.	.	.	16ddd'
.	.	8r	16bb-'
.	.	.	16ff'JJ
=208	=208	=208	=208
4.T	4.I	4.r	(16bb-LL
.	.	.	16ff
.	.	.	16dd)
.	.	.	16ff'
.	.	.	16dd'
.	.	.	16b-'JJ
*	*	*clefF4	*
=209	=209	=209	=209
4.T	4.Ic	8F	(16ffLL
.	.	.	16dd
.	.	4f	16b-
.	.	.	16ff
.	.	.	16dd
.	.	.	16bJJ)
=210	=210	=210	=210
4.T	4.V7	8F	(16ffLL
.	.	.	16ee-
.	.	4e- 4f	16cc
.	.	.	16ff
.	.	.	16cc
.	.	.	16aJJ)
=211	=211	=211	=211
4.T	4.I	16B-LL	4b-
.	.	16d	.
.	.	16c	.
.	.	16B-	.
.	.	16A	8r
.	.	16GJJ	.
*-	*-	*-	*-
!!!COM: Beethoven
!!!OTL: Zehn Variationen uber "la stessa, la stessissima" aus "Falstaff" von A. Salieri
!!!Variation: Variation 10 c
**function	**harm	**kern	**kern
*	*	*clefF4	*clefG2
*	*	*k[b-e-]	*k[b-e-]
*M3/8	*M3/8	*M3/8	*M3/8
*B-:	*B-:	*B-:	*B-:
=212	=212	=212	=212
4.	4.viioD7/vi	16F#LL	8r
.	.	16E-	.
.	.	16D	8ddL
.	.	16C	.
.	.	16BB-	8ddJ
.	.	16AAJJ	.
=213	=213	=213	=213
4.T	4.i/vi	16GGLL	4gg
.	.	16d	.
.	.	16B-	.
.	.	16d	.
.	.	.	q8aa
.	.	16G	(32ggLLL
.	.	.	32ff#
.	.	16dJJ	32gg
.	.	.	32aaJJJ)
=214	=214	=214	=214
4.T	4.i/vi	16GLL	4bb-'
.	.	16d	.
.	.	16B-	.
.	.	16d	.
.	.	16G	8gg'
.	.	16dJJ	.
=215	=215	=215	=215
4.T	4.Vb/V	16F#LL	4aa'
.	.	16d	.
.	.	16A	.
.	.	16d	.
.	.	16F#	(8cc#
.	.	16dJJ	.
=216	=216	=216	=216
4.T	4.Vb/V	16F#LL	4dd)
.	.	16d	.
.	.	16A	.
.	.	16d	.
*	*	*	*clefF4
.	.	16F#	(8C#
.	.	16dJJ	.
=217	=217	=217	=217
4.T	4.Vb/V	16F#LL	4D)
.	.	16d	.
.	.	16A	.
.	.	16d	.
*	*	*	*clefG2
.	.	.	q8bb-
.	.	16F#	(32aaLLL
.	.	.	32gg
.	.	16dJJ	32aa
.	.	.	32bb-JJJ)
=218	=218	=218	=218
4.T	4.V7b/V	16F#LL	4ccc'
.	.	16d	.
.	.	16A	.
.	.	16d	.
.	.	16F#	8aa'
.	.	16dJJ	.
=219	=219	=219	=219
4.T	4.i/vi	16GLL	4bb-'
.	.	16d	.
.	.	16B-	.
.	.	16d	.
.	.	16G	(8f#
.	.	16dJJ	.
=220	=220	=220	=220
4.T	4.i/vi	16GLL	4g)
.	.	16d	.
.	.	16B-	.
.	.	16d	.
*	*	*	*clefF4
.	.	16G	(8FF#
.	.	16dJJ	.
=221	=221	=221	=221
4.T	4.i/vi	16GLL	4GG)
.	.	16d	.
.	.	16B-	.
.	.	16d	.
*	*	*	*clefG2
.	.	.	q8ccc
.	.	16G	(32bb-LLL
.	.	.	32aa
.	.	16dJJ	32bb-
.	.	.	32cccJJJ)
=222	=222	=222	=222
4.T	4.i/vi	16GLL	4ddd'
.	.	16d	.
.	.	16B-	.
.	.	16d	.
.	.	16G	8bb-'
.	.	16dJJ	.
=223	=223	=223	=223
4.T	4.ib/v/vi	16FLL	16.aa'LL
.	.	16d	.
.	.	.	(32aaJJk
.	.	16A	4ddd)
.	.	16d	.
.	.	16F	.
.	.	16dJJ	.
=224	=224	=224	=224
4.P	4.iiob/v/vi	16GLL	16.gg'LL
.	.	16e	.
.	.	.	(32ggJJk
.	.	16B-	4bb-)
.	.	16e	.
.	.	16G	.
.	.	16eJJ	.
=225	=225	=225	=225
4.D	4.ic/v/vi	16ALL	16.ff'LL
.	.	16f	.
.	.	.	(32ffJJk
.	.	16d	4aa)
.	.	16f	.
.	.	16A	.
.	.	16fJJ	.
=226	=226	=226	=226
4.D	4.V7/v/vi	16ALL	16.ee'LL
.	.	16g	.
.	.	.	(32eeJJk
.	.	16c#	4aa)
.	.	16g	.
.	.	16A	.
.	.	16gJJ	.
=227	=227	=227	=227
4.T	4.i/v/vi	4d 4f	16ddLL
.	.	.	16b-
.	.	.	16a
.	.	.	16g
.	.	8r	16f
.	.	.	16eJJ
*-	*-	*-	*-
!!!COM: Beethoven
!!!OTL: Zehn Variationen uber "la stessa, la stessissima" aus "Falstaff" von A. Salieri
!!!Variation: Variation 10 d
**function	**harm	**kern	**kern
*	*	*clefF4	*clefF4
*	*	*k[b-e-]	*k[b-e-]
*M3/8	*M3/8	*M3/8	*M3/8
*B-:	*B-:	*B-:	*B-:
=228	=228	=228	=228
4.T	4.i/iii	8r	16dLL
.	.	.	16B-
.	.	8r	16A
.	.	.	16G
.	.	(8AAA	16F
.	.	.	16EJJ
=229	=229	=229	=229
4.T	4.i/iii	4DD)	(16FLL
.	.	.	16A
.	.	.	16d
.	.	.	16A
.	.	q8EE	.
.	.	(32DDLLL	16F
.	.	32CC#	.
.	.	32DD	16AJJ
.	.	32EEJJJ)	.
=230	=230	=230	=230
4.T	4.V7c/iii	4FF'	16dLL
.	.	.	16A
.	.	.	16F
.	.	.	16A
.	.	8DD'	16d
.	.	.	16AJJ)
*	*	*	*clefG2
=231	=231	=231	=231
4.T	4.V7/iii	4EE'	(16GLL
.	.	.	16A
.	.	.	16c#
.	.	.	16A
*	*	*clefG2	*
.	.	8g#	16G
.	.	.	16AJJ
=232	=232	=232	=232
4.T	4.V7c/iii	4a	16c#LL
.	.	.	16A
.	.	.	16G
.	.	.	16A
*	*	*clefF4	*
.	.	(8AAA	16c#
.	.	.	16AJJ)
=233	=233	=233	=233
4.T	4.V7d/iii	4EE)	(16GLL
.	.	.	16A
.	.	.	16c#
.	.	.	16A
.	.	q8FF	.
.	.	(32EELLL	16G
.	.	32DD	.
.	.	32EE	16AJJ
.	.	32FFJJJ)	.
=234	=234	=234	=234
4.T	4.ib/iii	4GG'	16c#LL
.	.	.	16A
.	.	.	16G
.	.	.	16A
.	.	8EE'	16c#
.	.	.	16AJJ)
=235	=235	=235	=235
4.T	4.ib/iii	4FF'	(16dLL
.	.	.	16A
.	.	.	16F
.	.	.	16A
*	*	*clefG2	*
.	.	(8cc#	16d
.	.	.	16AJJ
=236	=236	=236	=236
4.D	4.V7	4dd)	16FLL
.	.	.	16A
.	.	.	16d
.	.	.	16A
.	.	8r	16F
.	.	.	16AJJ)
*	*	*clefF4	*
=237	=237	=237	=237
4.D	4.V7	4FF	(16e-LL
.	.	.	16c
.	.	.	16A
.	.	.	16c
*	*	*clefG2	*
.	.	(8dd	16e-
.	.	.	16cJJ
=238	=238	=238	=238
4.D	4.V7	4ee-)	16ALL
.	.	.	16c
.	.	.	16e-
.	.	.	16c
.	.	8r	16A
.	.	.	16cJJ)
*	*	*clefF4	*
=239	=239	=239	=239
4.D	4.V7	4FF	(16aLL
.	.	.	16e-
.	.	.	16c
.	.	.	16e-
*	*	*clefG2	*
.	.	(8gg#	16a
.	.	.	16e-JJ
=240	=240	=240	=240
4.D	4.V7	8aa)	16cLL
.	.	.	16e-
.	.	8r	16a
.	.	.	16e-
.	.	(8bb	16c
.	.	.	16e-JJ)
=241	=241	=241	=241
4.D	4.V7	8ccc)	(16aLL
.	.	.	16e-
.	.	8r	16c
.	.	.	16e-
.	.	(8ddd	16a
.	.	.	16e-JJ
=242	=242	=242	=242
4.D	4.V7	8eee-)	16cLL
.	.	.	16e-
.	.	8r	16a
.	.	.	16e-
.	.	(8ddd	16c
.	.	.	16e-JJ)
=243	=243	=243	=243
4.D	4.V7	8eee-)	(16aLL
.	.	.	16e-
.	.	8r	16c)
.	.	.	16cc'
.	.	8r	16a'
.	.	.	16e-'JJ
=244	=244	=244	=244
4.D	4.V7	4.r	(16ee-LL
.	.	.	16cc
.	.	.	16a)
.	.	.	16aa'
.	.	.	16ee-'
.	.	.	16cc'JJ
=245	=245	=245	=245
4.D	4.V7	4.r	(16cccLL
.	.	.	16aa
.	.	.	16ee-)
.	.	.	16eee-'
.	.	.	16ccc'
.	.	.	16aa'JJ
=246	=246	=246	=246
4.D	4.V7	4.r	(16eee-LL
.	.	.	16ccc
.	.	.	16aa)
.	.	.	16eee-'
.	.	.	16ccc'
.	.	.	16aa'JJ
=247	=247	=247	=247
4.D	4.V7	4.r	(16eee-LL
.	.	.	16ccc
.	.	.	16aa)
.	.	.	16eee-'
.	.	.	16ccc'
.	.	.	16aa'JJ
=248	=248	=248	=248
4.D	4.V7	4.r	(16eee-LL
.	.	.	16ccc
.	.	.	16aa)
.	.	.	16eee-'
.	.	.	16ccc'
.	.	.	16aa'JJ
=249	=249	=249	=249
4.D	4.V7	4.r	(16eee-LL
.	.	.	16ddd
.	.	.	16fff
.	.	.	16eee-
.	.	.	16ddd
.	.	.	16cccJJ
=250	=250	=250	=250
4.D	4.V7	4.r	16bb-LL
.	.	.	16aa
.	.	.	16ccc
.	.	.	16bb-J
.	.	.	48aaLL
.	.	.	48bb-
.	.	.	48bbJJ
.	.	.	48cccLL
.	.	.	48ccc#
.	.	.	48dddJJJ)
=251	=251	=251	=251
4.D	4.V7	4.r	(16eee-LL
.	.	.	16ddd
.	.	.	16fff
.	.	.	16eee-
.	.	.	16ddd
.	.	.	16cccJJ
=252	=252	=252	=252
4.D	4.V7	4.r	16bb-LL
.	.	.	16aa
.	.	.	16ccc
.	.	.	16bb-J
.	.	.	48aaLL
.	.	.	48bb-
.	.	.	48bbJJ
.	.	.	48cccLL
.	.	.	48ccc#
.	.	.	48dddJJJ)
=253	=253	=253	=253
4.D	4.V7	4.r	(16eee-LL
.	.	.	16ddd
.	.	.	16fff
.	.	.	16eee-
.	.	.	16ddd
.	.	.	16cccJJ
=254	=254	=254	=254
4.D	4.V7	4.r	16bb-LL
.	.	.	16aa
.	.	.	16ccc
.	.	.	16bb
.	.	.	16ddd
.	.	.	16cccJJ
=255	=255	=255	=255
4.D	4.V7	4.r	16bb-LL
.	.	.	16aa
.	.	.	16gg
.	.	.	16ff
.	.	.	16ee
.	.	.	16ffJJ
=256	=256	=256	=256
4.D	4.V7	4.r	16ggLL
.	.	.	16ff
.	.	.	16ee-
.	.	.	16dd
.	.	.	16ff
.	.	.	16ee-JJ)
=257	=257	=257	=257
4.D	4.V7	4.r	(16ddLL
.	.	.	16cc
.	.	.	16ee-
.	.	.	16dd
.	.	.	16cc
.	.	.	16b-JJ
=258	=258	=258	=258
4.D	4.V7	4.r	16aLL
.	.	.	16b-
.	.	.	16b
.	.	.	16cc
.	.	.	16dd
.	.	.	16ccJJ
=259	=259	=259	=259
4.D	4.V7	4.r	16b-LL
.	.	.	16a
.	.	.	16g
.	.	.	16f
.	.	.	16e
.	.	.	16fJJ
=260	=260	=260	=260
4.D	4.V7	4.r	16gLL
.	.	.	16f
.	.	.	16e-
.	.	.	16d
.	.	.	16f
.	.	.	16e-JJ)
=261	=261	=261	=261
4.D	4.V7	4.r	(16dLL
.	.	.	16c
.	.	.	16e-
.	.	.	16d
.	.	.	16c
.	.	.	16B-JJ
*	*	*	*clefF4
=262	=262	=262	=262
4.D	4.V7	4.r	16ALL
.	.	.	16G
.	.	.	16F
.	.	.	16E
.	.	.	16G
.	.	.	16FJJ
=263	=263	=263	=263
4.D	4.V7	4.r	16E-LL
.	.	.	16D
.	.	.	16F
.	.	.	16E-
.	.	.	16D
.	.	.	16CJJ
=264	=264	=264	=264
4.D	4.V7	4.r	16BB-LL
.	.	.	16AA
.	.	.	16C
.	.	.	16BB-
.	.	.	16AA
.	.	.	16BB-JJ)
=265	=265	=265	=265
4.D	4.V7	4.r	(16BBLL
.	.	.	16C
.	.	.	16C#
.	.	.	16D
.	.	.	16E-
.	.	.	16EJJ
=266	=266	=266	=266
4.D	4.V7	4.r	16FLL
.	.	.	16F#
.	.	.	16G
.	.	.	16G#
.	.	.	16A
.	.	.	16B-JJ
*	*	*	*clefG2
=267	=267	=267	=267
4.D	4.V7	4.r	16BLL
.	.	.	16c
.	.	.	16c#
.	.	.	16d
.	.	.	16e-
.	.	.	16eJJ
=268	=268	=268	=268
4.D	4.V7	4.r	16fLL
.	.	.	16f#
.	.	.	16g
.	.	.	16a-
.	.	.	8aJJ)
*-	*-	*-	*-
!!!COM: Beethoven
!!!OTL: Zehn Variationen uber "la stessa, la stessissima" aus "Falstaff" von A. Salieri
!!!Variation: Variation 10 e
**function	**harm	**kern	**kern
*	*	*clefF4	*clefG2
*	*	*k[b-e-]	*k[b-e-]
*M3/8	*M3/8	*M3/8	*M3/8
*B-:	*B-:	*B-:	*B-:
=269	=269	=269	=269
*	*	*^	*
4.T	4.I	8BB-	8F'	16b-LL
.	.	.	.	16f
.	.	8r	[4B-	16d
.	.	.	.	16dd
.	.	8r	.	16b-
.	.	.	.	16fJJ
=270	=270	=270	=270	=270
4.T	4.I	8BB-	8B-]	16ffLL
.	.	.	.	16dd
.	.	8r	[4d	16b-
.	.	.	.	16bb-
.	.	8r	.	16ff
.	.	.	.	16ddJJ
=271	=271	=271	=271	=271
4.T	4.V7	8F	8d]	16ee-LL
.	.	.	.	16cc
.	.	8r	[4c	16a
.	.	.	.	16aa
.	.	8r	.	16ee-
.	.	.	.	16ccJJ
=272	=272	=272	=272	=272
4.T	4.V7	4.r	8cL]	16cccLL
.	.	.	.	16aa
.	.	.	8F'	16ee-
.	.	.	.	16eee-
.	.	.	8F'J	16ccc
.	.	.	.	16aaJJ
=273	=273	=273	=273	=273
4.T	4.V7	8FF	8F'	16eee-LL
.	.	.	.	16ccc
.	.	8r	[4c	16aa
.	.	.	.	16eee-
.	.	8r	.	16ccc
.	.	.	.	16aaJJ
=274	=274	=274	=274	=274
4.T	4.V7	8F	8c]	16ee-LL
.	.	.	.	16cc
.	.	8r	[4f	16a
.	.	.	.	16ee-
.	.	8r	.	16cc
.	.	.	.	16aJJ
=275	=275	=275	=275	=275
4.T	4.I	8B-	8f]	16ccLL
.	.	.	.	16b-
.	.	8r	[4d	16a
.	.	.	.	16b-
.	.	8r	.	16cc
.	.	.	.	16ddJJ
=276	=276	=276	=276	=276
4.T	4.I	4.r	8dL]	16ee-LL
.	.	.	.	16ee
.	.	.	8B-'	16ff
.	.	.	.	16gg
.	.	.	8B-'J	16aa
.	.	.	.	16bb-JJ
=277	=277	=277	=277	=277
4.T	4.IV	8E-	8B-	16ggLL
.	.	.	.	16ee-
.	.	8r	[4e-	16b-
.	.	.	.	16gg
.	.	8r	.	16ee-
.	.	.	.	16b-JJ
=278	=278	=278	=278	=278
4.T	4.IV	8E-	8e-]	16bb-LL
.	.	.	.	16gg
.	.	8r	[4g	16b-
.	.	.	.	16bb-
.	.	8r	.	16ee-
.	.	.	.	16b-JJ
=279	=279	=279	=279	=279
4.T	4.I	8B-	8g]	16bb-LL
.	.	.	.	16b-
.	.	8r	[4f	16dd
.	.	.	.	16ff
.	.	8r	.	16bb-
.	.	.	.	16ddJJ
=280	=280	=280	=280	=280
4.T	4.I	4.r	8fL]	16ffLL
.	.	.	.	16bb-
.	.	.	8d'	16ddd
.	.	.	.	16ff
.	.	.	8B-'J	16bb-
.	.	.	.	16dddJJ
*	*	*v	*v	*
=281	=281	=281	=281
8D	8V	8F 8c	16fff'LL
.	.	.	(16ee
4D	4i	4B- 4d-	16ff)
.	.	.	(16eee
.	.	.	16fff)
.	.	.	(16eeJJ
=282	=282	=282	=282
8D	8V	8F 8c	16ffLL)
.	.	.	(16eee
4D	4I	4B- 4d	16fff)
.	.	.	(16ee
.	.	.	16ff)
.	.	.	(16eeeJJ
=283	=283	=283	=283
4.D	4.V	4F 4c	16fffLL)
.	.	.	16ccc
.	.	.	16aa
.	.	.	16ff
.	.	8r	16cc
.	.	.	16aJJ
=284	=284	=284	=284
4.D	4.V7	4.r	16fLL
.	.	.	16e
.	.	.	16e-
.	.	.	16d
.	.	.	16c
.	.	.	16fJJ
*-	*-	*-	*-
!!!COM: Beethoven
!!!OTL: Zehn Variationen uber "la stessa, la stessissima" aus "Falstaff" von A. Salieri
!!!Variation: Variation 10 f
**function	**harm	**kern	**kern
*	*	*clefF4	*clefG2
*	*	*k[b-e-]	*k[b-e-]
*M3/8	*M3/8	*M3/8	*M3/8
*B-:	*B-:	*B-:	*B-:
=285	=285	=285	=285
4.T	4.I	16BB-LL	8B-'
.	.	16B-	.
.	.	16F	[4d [4f [4b-
.	.	16D	.
.	.	16BB-	.
.	.	16FJJ	.
=286	=286	=286	=286
4.T	4.I	16DLL	8d] 8f] 8b-]
.	.	16BB-	.
.	.	16FF	[4f [4b- [4dd
.	.	16DD	.
.	.	16BBB-	.
.	.	16FFJJ	.
=287	=287	=287	=287
4.T	4.V	16FFFLL	8f] 8b-] 8dd]
.	.	16AAA	.
.	.	16CC	[4f [4a [4cc
.	.	16FF	.
.	.	16AA	.
.	.	16CJJ	.
=288	=288	=288	=288
4.T	4.V	16ELL	8fL] 8a] 8cc]
.	.	16F	.
.	.	16E	8f'
.	.	16F	.
.	.	16E	8f'J
.	.	16FJJ	.
=289	=289	=289	=289
4.T	4.V7	16FLL	8f'
.	.	16e-	.
.	.	16c	[4f [4a [4cc
.	.	16A	.
.	.	16F	.
.	.	16cJJ	.
=290	=290	=290	=290
4.T	4.V7	16ALL	8f] 8a] 8cc]
.	.	16F	.
.	.	16E-	[4f [4a [4cc [4ff
.	.	16C	.
.	.	16AA	.
.	.	16FFJJ	.
=291	=291	=291	=291
4.T	4.I	16BBB-LL	8f] 8a] 8cc] 8ff]
.	.	16DD	.
.	.	16FF	[4f [4b- [4dd
.	.	16BB-	.
.	.	16D	.
.	.	16FJJ	.
=292	=292	=292	=292
4.T	4.I	16ALL	8fL] 8b-] 8dd]
.	.	16B-	.
.	.	16A	8b-'
.	.	16B-	.
.	.	16A	8b-'J
.	.	16B-JJ	.
=293	=293	=293	=293
4.T	4.IV	16E-LL	8g' 8b-'
.	.	16e-	.
.	.	16B-	[4g [4b- [4ee-
.	.	16G	.
.	.	16E-	.
.	.	16B-JJ	.
=294	=294	=294	=294
4.T	4.IV	16GLL	8g] 8b-] 8ee-]
.	.	16E-	.
.	.	16BB-	[4g [4b- [4ee- [4gg
.	.	16G	.
.	.	16E-	.
.	.	16BB-JJ	.
=295	=295	=295	=295
4.T	4.I	16BBB-LL	8g] 8b-] 8ee-] 8gg]
.	.	16BB-	.
.	.	16D	[4f [4b- [4dd [4ff
.	.	16F	.
.	.	16BB-	.
.	.	16DJJ	.
=296	=296	=296	=296
4.T	4.I	16FLL	8f] 8b-] 8dd] 8ff]
.	.	16B-	.
.	.	16BB-	[4f [4b- [4dd
.	.	16D	.
.	.	16F	.
.	.	16B-JJ	.
=297	=297	=297	=297
4.P	4.IV	16EE-LL	8f] 8b-] 8dd]
.	.	16E-	.
.	.	16D	[4g [4cc [4ee-
.	.	16E-	.
.	.	16EE-	.
.	.	16E-JJ	.
=298	=298	=298	=298
4.D	4.V7	16FFLL	8g] 8cc] 8ee-]
.	.	16F	.
.	.	16E	4e- 4a 4cc
.	.	16F	.
.	.	16FF	.
.	.	16FJJ	.
=299	=299	=299	=299
4.T	4.I	4BB-	4d 4b-
.	.	8BB-^ 8B-^	8d^ 8f^
=300	=300	=300	=300
4.T	4.I	4BB- 4B-	4d 4f
.	.	8BB-^ 8B-^	8d^ 8f^
=301	=301	=301	=301
4.T	4.I	4BB- 4B-	4d 4f
.	.	8BB-^ 8B-^	8d^ 8f^
=302	=302	=302	=302
4.T	4.I	4BB- 4B-	4d 4f
.	.	8BB-^ 8B-^	8d^ 8f^
=303	=303	=303	=303
4.T	4.iv	4BB- 4B-	4e- 4g-
.	.	8BB-^ 8B-^	8e-^ 8g-^
=304	=304	=304	=304
4.T	4.iv	4BB- 4B-	4e- 4g-
.	.	8BB-^ 8B-^	8e-^ 8g-^
=305	=305	=305	=305
4.T	4.iv	4BB- 4B-	4e- 4g-
.	.	8BB-^ 8B-^	8e-^ 8g-^
=306	=306	=306	=306
4.T	4.iv	4BB- 4B-	4e- 4g-
.	.	8BB-^ 8B-^	8e-^ 8g-^
=307	=307	=307	=307
4.T	4.I/-II	(4C-' 4c-'	(4e-' 4g-'
.	.	8C-') 8c-'	8e-') 8g-'
=308	=308	=308	=308
4.T	4.I/-II	(4C-' 4c-'	(4e-' 4g-'
.	.	8C-') 8c-'	8e-') 8g-'
=309	=309	=309	=309
4.T	4.I/-II	(4C-' 4c-'	(4e-' 4g-'
.	.	8C-') 8c-'	8e-') 8g-'
=310	=310	=310	=310
4.T	4.I/-II	(4C-' 4c-'	(4e-' 4g-'
.	.	8C-') 8c-'	8e-') 8g-'
*-	*-	*-	*-
!!!COM: Beethoven
!!!OTL: Zehn Variationen uber "la stessa, la stessissima" aus "Falstaff" von A. Salieri
!!!Variation: Variation 10 g
**function	**harm	**kern	**kern
*	*	*clefF4	*clefG2
*	*	*k[b-e-]	*k[b-e-]
*M3/8	*M3/8	*M3/8	*M3/8
*B-:	*B-:	*B-:	*B-:
=311	=311	=311	=311
*	*	*	*^
4.P	4.I/-II	4BB 4F# 4B	4d#	(8f#L
.	.	.	.	8b)
.	.	8BB 8F# 8B	8d#	8b'J
=312	=312	=312	=312	=312
.	.	.	.	q8cc#
4.P	4.I/-II	4BB 4F# 4B	4d#	(16bLL
.	.	.	.	16a#
.	.	.	.	16b
.	.	.	.	16cc#J)
.	.	8BB 8F# 8B	8d#	8dd#'J
=313	=313	=313	=313	=313
4.P	4.V7/-II	4BB 4F# 4A#	8e	8b#'
.	.	.	[4e	([4cc#
.	.	8BB 8F# 8A#	.	.
=314	=314	=314	=314	=314
4.P	4.V7/-II	4BB 4F# 4A#	8eL]	8cc#L]
.	.	.	8e	8f#)
.	.	8BB 8F# 8A#	8eJ	8f#'J
=315	=315	=315	=315	=315
4.P	4.V7/-II	4BB 4F# 4A#	4e	(8f#L
.	.	.	.	8cc#)
.	.	8BB 8F# 8A#	8e	8cc#'J
*	*	*	*v	*v
=316	=316	=316	=316
4.P	4.V7/-II	4BB 4E- 4F# 4A#	(16dd#LL
.	.	.	16cc#
.	.	.	16b#
.	.	.	16cc#J)
.	.	8BB 8E- 8F# 8A#	8ff#'J
=317	=317	=317	=317
4.P	4.I/-II	4BB 4D# 4F# 4B	(16dd#LL
.	.	.	16f#
.	.	.	16d#
.	.	.	16dd#
.	.	8BB 8D# 8F#	16f#
.	.	.	16d#JJ
=318	=318	=318	=318
4.P	4.I/-II	4BB 4D# 4F#	16dd#LL
.	.	.	16f#
.	.	.	16d#
.	.	.	16dd#
.	.	8BB 8D# 8F#	16f#
.	.	.	16d#JJ)
=319	=319	=319	=319
4.P	4.ivc	4BB- 4E- 4G-	(16gg-LL
.	.	.	16ee-
.	.	.	16g-
.	.	.	16gg-
.	.	8BB- 8E- 8G-	16ee-
.	.	.	16g-JJ
=320	=320	=320	=320
4.P	4.ivc	4BB- 4E- 4G-	16gg-LL
.	.	.	16ee-
.	.	.	16g-
.	.	.	16gg-
.	.	8BB- 8E- 8G-	16ee-
.	.	.	16g-JJ)
=321	=321	=321	=321
4.P	4.viioD7	4AA 4E- 4G-	(16cccLL
.	.	.	16gg-
.	.	.	16cc
.	.	.	16ccc
.	.	8AA 8E- 8G-	16gg-
.	.	.	16ccJJ
=322	=322	=322	=322
4.P	4.V7/-III	4AA- 4E- 4G-	16cccLL
.	.	.	16gg-
.	.	.	16cc
.	.	.	16ccc
.	.	8AA- 8E- 8G-	16gg-
.	.	.	16ccJJ)
=323	=323	=323	=323
4.P	4.I/-IIIc	4AA- 4D- 4F	(16ddd-LL
.	.	.	16ff
.	.	.	16dd-
.	.	.	16ddd-
.	.	8AA- 8D- 8F	16ff
.	.	.	16dd-JJ
=324	=324	=324	=324
4.P	4.V+b	4AAn 4D- 4F	16ddd-LL
.	.	.	16ff
.	.	.	16dd-
.	.	.	16ddd-
.	.	8AA 8D- 8F	16ff
.	.	.	16dd-JJ)
=325	=325	=325	=325
4.P	4.i	4BB- 4D- 4F	(16ddd-LL
.	.	.	16ff
.	.	.	16dd-
.	.	.	16ddd-
.	.	8BB- 8D- 8F	16ff
.	.	.	16dd-JJ
=326	=326	=326	=326
4.D	4.Gr	4GG- 4BB- 4D- 4E	16eeeLL
.	.	.	16bb-
.	.	.	16ee
.	.	.	16eee
.	.	8GG- 8BB- 8D- 8E	16bb-
.	.	.	16eeJJ)
=327	=327	=327	=327
4.D	4.Cc	[4.FF [4.BB- [4.D [4.F	(16fffLL
.	.	.	16ddd
.	.	.	16bb-)
.	.	.	16ddd'
.	.	.	16bb-'
.	.	.	16ff'JJ
=328	=328	=328	=328
4.D	4.Cc	4.FF_ 4.BB-_ 4.D_ 4.F_	(16bb-LL
.	.	.	16ff
.	.	.	16dd)
.	.	.	16ff'
.	.	.	16dd'
.	.	.	16b-'JJ
=329	=329	=329	=329
4.D	4.Cc	4.FF_ 4.BB-_ 4.D_ 4.F_	(16ddLL
.	.	.	16b-
.	.	.	16f)
.	.	.	16b-'
.	.	.	16f'
.	.	.	16d'JJ
=330	=330	=330	=330
4.D	4.Cc	4.FF_ 4.BB-] 4.D] 4.F]	(16fLL
.	.	.	16d
.	.	.	16B-)
.	.	.	16d'
.	.	.	16B-'
.	.	.	16F'JJ
*	*	*	*clefF4
=331	=331	=331	=331
4D	4Ic	4FF]	16DLL
.	.	.	16B-
.	.	.	16A
.	.	.	16B-
8D	8Ib	16DDLL	16D
.	.	16BB-JJ	16B-JJ
=332	=332	=332	=332
8D	8IV	16EE-LL	16E-LL
.	.	16BB-	16B-
8D	8viio/V	16EE	16E
.	.	16BB-	16B-
8D	8Cc	16FF	16F
.	.	16BB-JJ	16B-JJ
=333	=333	=333	=333
8D	8viio/vi	16FF#LL	16F#LL
.	.	16BB-	16B-
8D	8vi	16GG	16G
.	.	16BB-	16B-
8D	8Ib	16DD	16D
.	.	16BB-JJ	16B-JJ
=334	=334	=334	=334
8D	8IV	16EE-LL	16E-LL
.	.	16BB-	16B-
8D	8viio/V	16EE	16E
.	.	16BB-	16B-
8D	8Cc	16FF	16F
.	.	16BB-JJ	16B-JJ
=335	=335	=335	=335
8D	8viio/vi	16FF#LL	16F#LL
.	.	16BB-	16B-
8D	8vi	16GG	16G
.	.	16BB-	16B-
8D	8Ib	16DD	16D
.	.	16BB-JJ	16B-JJ
=336	=336	=336	=336
8D	8IV	16EE-LL	16E-LL
.	.	16BB-	16B-
8D	8viio/V	16EE	16E
.	.	16BB-	16B-
8D	8Cc	16FF	16F
.	.	16BB-JJ	16B-JJ
=337	=337	=337	=337
8D	8viio/vi	16FF#LL	16F#LL
.	.	16BB-	16B-
8D	8vi	16GG	16G
.	.	16BB-	16B-
8D	8viio/V	16EE	16E
.	.	16BB-JJ	16B-JJ
=338	=338	=338	=338
8D	8viio/vi	16FF#LL	16F#LL
.	.	16BB-	16B-
8D	8vi	16GG	16G
.	.	16BB-	16B-
8D	8viio/V	16EE	16E
.	.	16BB-JJ	16B-JJ
=339	=339	=339	=339
4.D	4.V	4FF	24FLL
.	.	.	24F#
.	.	.	24GJ
.	.	.	24A-L
.	.	.	24A
.	.	.	24B-J
.	.	8r	24BL
.	.	.	24c
.	.	.	24c#JJ
*	*	*	*clefG2
=340	=340	=340	=340
4.D	4.V	4.r	24dLL
.	.	.	24e-
.	.	.	24eJ
.	.	.	24fL
.	.	.	24f#
.	.	.	24gJ
.	.	.	24a-L
.	.	.	24a
.	.	.	24b-JJ
=341	=341	=341	=341
4.D	4.V	4.r	24bLL
.	.	.	24cc
.	.	.	24cc#J
.	.	.	24ddL
.	.	.	24ee-
.	.	.	24eeJ
.	.	.	24ffL
.	.	.	24ff#
.	.	.	24ggJJ
=342	=342	=342	=342
4.D	4.V	4.r	24aa-LL
.	.	.	24aa
.	.	.	24bb-J
.	.	.	24bbL
.	.	.	24ccc
.	.	.	24ccc#J
.	.	.	48dddLL
.	.	.	48eee-
.	.	.	48eeeJJ
.	.	.	48fffLL
.	.	.	48ddd
.	.	.	48bb-JJJ
=343	=343	=343	=343
4.D	4.V	4.r	4.ccc
*	*	*clefG2	*
=344	=344	=344	=344
4.D	4.V	8r	4.ccc
.	.	8r	.
.	.	(32fLLL	.
.	.	32e	.
.	.	32f	.
.	.	32gJJJ)	.
=345	=345	=345	=345
4.D	4.V	8f	4.ccc
.	.	8r	.
.	.	(32ffLLL	.
.	.	32ee	.
.	.	32ff	.
.	.	32ggJJJ)	.
=346	=346	=346	=346
4.D	4.V	8ff	4.ccc
.	.	8r	.
.	.	(32ffLLL	.
.	.	32ee	.
.	.	32ff	.
.	.	32ggJJJ)	.
=347	=347	=347	=347
4.D	4.V7d	4ff	4.ccc
.	.	8r	.
=348	=348	=348	=348
4.D	4.V7d	8r	4.ccc
.	.	8r	.
.	.	(32e-LLL	.
.	.	32d	.
.	.	32e-	.
.	.	32fJJJ)	.
=349	=349	=349	=349
4.D	4.V7d	8e-	4.ccc
.	.	8r	.
.	.	(32ee-LLL	.
.	.	32dd	.
.	.	32ee-	.
.	.	32ffJJJ)	.
=350	=350	=350	=350
4.D	4.V7d	8ee-	4.ccc
.	.	8r	.
.	.	(32ee-LLL	.
.	.	32dd	.
.	.	32ee-	.
.	.	32ffJJJ)	.
=351	=351	=351	=351
4.D	4.V7d	4ee-	4.ccc
.	.	8r	.
=352	=352	=352	=352
4.D	4.V7d	8r	4.ccc
.	.	8r	.
.	.	(32ee-LLL	.
.	.	32dd	.
.	.	32ee-	.
.	.	32ffJJJ)	.
=353	=353	=353	=353
4.D	4.V7d	4ee-	4.ccc
.	.	8r	.
=354	=354	=354	=354
4.D	4.V7d	8r	4.ccc
.	.	8r	.
.	.	(32ee-LLL	.
.	.	32dd	.
.	.	32ee-	.
.	.	32ffJJJ)	.
=355	=355	=355	=355
4.D	4.V7d	16ee-LL	4.ccc
.	.	16dd	.
.	.	16cc	.
.	.	16b-	.
.	.	16a	.
.	.	16gJJ	.
*	*	*clefF4	*
=356	=356	=356	=356
4.D	4.V7d	16fLL	4.ccc
.	.	16e-	.
.	.	16d	.
.	.	16c	.
.	.	16B-	.
.	.	16AJJ	.
=357	=357	=357	=357
4.D	4.V	16GLL	4.ccc
.	.	16F	.
.	.	16E-	.
.	.	16D	.
.	.	16C	.
.	.	16BB-JJ	.
=358	=358	=358	=358
4.D	4.V	16AALL	4.ccc
.	.	16GG	.
.	.	16FF	.
.	.	16EE	.
.	.	16FF	.
.	.	16GGJJ	.
=359	=359	=359	=359
4.D	4.V	16AALL	4.ccc
.	.	16BB-	.
.	.	16BB	.
.	.	16C	.
.	.	16C#	.
.	.	16DJJ	.
=360	=360	=360	=360
4.D	4.V	4.FF; 4.AA; 4.C; 4.E-;	4.ccc;
*-	*-	*-	*-
!!!COM: Beethoven
!!!OTL: Zehn Variationen uber "la stessa, la stessissima" aus "Falstaff" von A. Salieri
!!!Variation: Variation 10 h
**function	**harm	**kern	**kern
*	*	*clefF4	*clefG2
*	*	*k[b-e-]	*k[b-e-]
*M4/4	*M4/4	*M4/4	*M4/4
*B-:	*B-:	*B-:	*B-:
=361	=361	=361	=361
1T	1I	4BB- 4D 4F 4B-	4bb-
.	.	.	q8cc
.	.	4r	(16b-LL
.	.	.	16a
.	.	.	16b-
.	.	.	16ccJJ)
.	.	4r	4b-'
.	.	4B-' 4f'	4b-' 4dd'
=362	=362	=362	=362
1T	1V	4F' 4f'	4a' 4cc'
.	.	.	q8gg
.	.	4r	(16ffLL
.	.	.	16ee
.	.	.	16ff
.	.	.	16ggJJ)
.	.	2r	4ff'
.	.	.	4r
=363	=363	=363	=363
2.T	2.V	4FF' 4F'	4A' 4c'
.	.	4r	(16ccLL
.	.	.	16dd
.	.	.	16cc
.	.	.	16b-JJ)
.	.	4r	4a'
4T	4viio/vi	4F#' 4c'	4a' 4ee-'
=364	=364	=364	=364
1T	1vi	4G' 4B-'	4b-' 4dd'
.	.	.	q8ccc
.	.	4r	(16bb-LL
.	.	.	16aa
.	.	.	16bb-
.	.	.	16cccJJ)
.	.	2r	4bb-'
.	.	.	4r
=365	=365	=365	=365
1P	1V7b/V	4E 4B- 4c	4r
.	.	.	q8aa
.	.	4r	(16ggLL
.	.	.	16ff#
.	.	.	16gg
.	.	.	16aaJJ)
.	.	2r	4gg'
.	.	.	4r
=366	=366	=366	=366
1D	1Ic	4F 4B- 4d	4r
.	.	.	q8gg
.	.	4r	(16ffLL
.	.	.	16ee
.	.	.	16ff
.	.	.	16ggJJ)
.	.	2r	4ff'
.	.	.	4r
=367	=367	=367	=367
1D	1V7	4FF 4C 4E-	4r
.	.	.	q8g
.	.	4r	(16fLL
.	.	.	16e
.	.	.	16f
.	.	.	16gJJ)
.	.	2r	4f'
.	.	.	4r
=368	=368	=368	=368
1T	1I	4BBB-'	1r
.	.	(16BBB-LL	.
.	.	16AAA	.
.	.	16BBB-	.
.	.	16CCJJ)	.
.	.	4BBB-'	.
.	.	(16BBB-LL	.
.	.	16AAA	.
.	.	16BBB-	.
.	.	16CCJJ)	.
=369	=369	=369	=369
1T	1V7	4BBB-'	4a' 4ee-' 4ff'
.	.	(16BBB-LL	4a' 4ee-' 4ff'
.	.	16AAA	.
.	.	16BBB-	.
.	.	16CCJJ)	.
.	.	4BBB-'	4a' 4ee-' 4ff'
.	.	(16BBB-LL	4a' 4ee-' 4ff'
.	.	16AAA	.
.	.	16BBB-	.
.	.	16CCJJ)	.
=370	=370	=370	=370
*	*	*	*^
1T	1I	4BBB-'	2b- 2dd	(4ff
.	.	(16BBB-LL	.	4bb-)
.	.	16AAA	.	.
.	.	16BBB-	.	.
.	.	16CCJJ)	.	.
*	*	*	*v	*v
.	.	4BBB-'	2r
.	.	(16BBB-LL	.
.	.	16AAA	.
.	.	16BBB-	.
.	.	16CCJJ)	.
=371	=371	=371	=371
1T	1V7	4BBB-'	4A' 4e-' 4f'
.	.	(16BBB-LL	4A' 4e-' 4f'
.	.	16AAA	.
.	.	16BBB-	.
.	.	16CCJJ)	.
.	.	4BBB-'	4A' 4e-' 4f'
.	.	(16BBB-LL	4A' 4e-' 4f'
.	.	16AAA	.
.	.	16BBB-	.
.	.	16CCJJ)	.
=372	=372	=372	=372
1T	1I	4BBB-	8B-'L 8d' 8f'
.	.	.	(16cL
.	.	.	16dJJ
.	.	4r	16e-LL
.	.	.	16f
.	.	.	16g
.	.	.	16aJJ)
.	.	4BB- 4D 4F 4B-	8b-'L
.	.	.	(16ccL
.	.	.	16ddJJ
.	.	4r	16ee-LL
.	.	.	16ff
.	.	.	16gg
.	.	.	16aaJJ)
=373	=373	=373	=373
1T	1I	4BBB-' 4BB-'	4bb-'
.	.	4BB-' 4D' 4F' 4B-'	4d' 4f' 4b-'
.	.	2r	2r
==374	==374	==374	==374
*-	*-	*-	*-
